{
 "compressionlevel": -1,
 "height": 28,
 "infinite": false,
 "width": 41,
 "tileheight": 32,
 "tilewidth": 32,
 "nextlayerid": 100,
 "nextobjectid": 26,
 "orientation": "orthogonal",
 "renderorder": "right-down",
 "tiledversion": "1.10.0",
 "type": "map",
 "version": "1.10",
 "properties": [
  {
   "name": "mapName",
   "type": "string",
   "value": "Karpischek — 1. Hof"
  },
  {
   "name": "mapDescription",
   "type": "string",
   "value": "11 Räume · Geschoss 4/5"
  },
  {
   "name": "mapCopyright",
   "type": "string",
   "value": "Laserscan TD Haider · WA Tileset Assets"
  }
 ],
 "tilesets": [
  {
   "firstgid": 1,
   "columns": 6,
   "image": "../../tilesets/WA_Special_Zones.png",
   "imageheight": 64,
   "imagewidth": 192,
   "margin": 0,
   "spacing": 0,
   "name": "zones",
   "tilecount": 12,
   "tileheight": 32,
   "tilewidth": 32
  },
  {
   "firstgid": 13,
   "columns": 12,
   "image": "../../tilesets/WA_Decoration.png",
   "imageheight": 256,
   "imagewidth": 384,
   "margin": 0,
   "spacing": 0,
   "name": "decoration",
   "tilecount": 96,
   "tileheight": 32,
   "tilewidth": 32
  },
  {
   "firstgid": 109,
   "columns": 25,
   "image": "../../tilesets/WA_Room_Builder.png",
   "imageheight": 1280,
   "imagewidth": 800,
   "margin": 0,
   "spacing": 0,
   "name": "room",
   "tilecount": 1000,
   "tileheight": 32,
   "tilewidth": 32
  },
  {
   "firstgid": 1109,
   "columns": 12,
   "image": "../../tilesets/WA_Other_Furniture.png",
   "imageheight": 416,
   "imagewidth": 384,
   "margin": 0,
   "spacing": 0,
   "name": "furniture",
   "tilecount": 156,
   "tileheight": 32,
   "tilewidth": 32
  },
  {
   "firstgid": 1265,
   "columns": 13,
   "image": "../../tilesets/WA_Seats.png",
   "imageheight": 448,
   "imagewidth": 416,
   "margin": 0,
   "spacing": 0,
   "name": "seats",
   "tilecount": 182,
   "tileheight": 32,
   "tilewidth": 32
  },
  {
   "firstgid": 1447,
   "columns": 10,
   "image": "../../tilesets/WA_Tables.png",
   "imageheight": 864,
   "imagewidth": 320,
   "margin": 0,
   "spacing": 0,
   "name": "tables",
   "tilecount": 270,
   "tileheight": 32,
   "tilewidth": 32
  },
  {
   "firstgid": 1717,
   "columns": 25,
   "image": "../../tilesets/WA_Exterior.png",
   "imageheight": 1088,
   "imagewidth": 800,
   "margin": 0,
   "spacing": 0,
   "name": "exterior",
   "tilecount": 850,
   "tileheight": 32,
   "tilewidth": 32
  },
  {
   "firstgid": 2567,
   "columns": 10,
   "image": "../../tilesets/WA_Miscellaneous.png",
   "imageheight": 352,
   "imagewidth": 320,
   "margin": 0,
   "spacing": 0,
   "name": "misc",
   "tilecount": 110,
   "tileheight": 32,
   "tilewidth": 32
  }
 ],
 "layers": [
  {
   "data": [
    0,
    0,
    0,
    0,
    0,
    0,
    0,
    0,
    0,
    0,
    0,
    0,
    0,
    0,
    0,
    0,
    0,
    0,
    0,
    0,
    0,
    0,
    0,
    0,
    0,
    0,
    0,
    0,
    0,
    0,
    0,
    0,
    0,
    0,
    0,
    0,
    0,
    0,
    0,
    0,
    0,
    0,
    0,
    0,
    0,
    0,
    0,
    0,
    0,
    0,
    0,
    0,
    0,
    0,
    0,
    0,
    0,
    0,
    0,
    0,
    0,
    1,
    0,
    0,
    0,
    0,
    0,
    0,
    0,
    0,
    0,
    0,
    0,
    0,
    0,
    0,
    0,
    0,
    0,
    0,
    0,
    0,
    0,
    0,
    0,
    0,
    0,
    0,
    0,
    0,
    0,
    0,
    0,
    0,
    0,
    0,
    0,
    0,
    0,
    0,
    0,
    0,
    0,
    0,
    0,
    0,
    0,
    0,
    0,
    0,
    0,
    0,
    0,
    0,
    0,
    0,
    0,
    0,
    0,
    0,
    0,
    0,
    0,
    0,
    0,
    0,
    0,
    0,
    0,
    0,
    0,
    0,
    0,
    0,
    0,
    0,
    0,
    0,
    0,
    0,
    0,
    0,
    0,
    0,
    0,
    0,
    0,
    0,
    0,
    0,
    0,
    0,
    0,
    0,
    0,
    0,
    0,
    0,
    0,
    0,
    0,
    0,
    0,
    0,
    0,
    0,
    0,
    0,
    0,
    0,
    0,
    0,
    0,
    0,
    0,
    0,
    0,
    0,
    0,
    0,
    0,
    0,
    0,
    0,
    0,
    0,
    0,
    0,
    0,
    0,
    0,
    0,
    0,
    0,
    0,
    0,
    0,
    0,
    0,
    0,
    0,
    0,
    0,
    0,
    0,
    0,
    0,
    0,
    0,
    0,
    0,
    0,
    0,
    0,
    0,
    0,
    0,
    0,
    0,
    0,
    0,
    0,
    0,
    0,
    0,
    0,
    0,
    0,
    0,
    0,
    0,
    0,
    0,
    0,
    0,
    0,
    0,
    0,
    0,
    0,
    0,
    0,
    0,
    0,
    0,
    0,
    0,
    0,
    0,
    0,
    0,
    0,
    0,
    0,
    0,
    0,
    0,
    0,
    0,
    0,
    0,
    0,
    0,
    0,
    0,
    0,
    0,
    0,
    0,
    0,
    0,
    0,
    0,
    0,
    0,
    0,
    0,
    0,
    0,
    0,
    0,
    0,
    0,
    0,
    0,
    0,
    0,
    0,
    0,
    0,
    0,
    0,
    0,
    0,
    0,
    0,
    0,
    0,
    0,
    0,
    0,
    0,
    0,
    0,
    0,
    0,
    0,
    0,
    0,
    0,
    0,
    0,
    0,
    0,
    0,
    0,
    0,
    0,
    0,
    0,
    0,
    0,
    0,
    0,
    0,
    0,
    0,
    0,
    0,
    0,
    0,
    0,
    0,
    0,
    0,
    0,
    0,
    0,
    0,
    0,
    0,
    0,
    0,
    0,
    0,
    0,
    0,
    0,
    0,
    0,
    0,
    0,
    0,
    0,
    0,
    0,
    0,
    0,
    0,
    0,
    0,
    0,
    0,
    0,
    0,
    0,
    0,
    0,
    0,
    0,
    0,
    0,
    0,
    0,
    0,
    0,
    0,
    0,
    0,
    0,
    0,
    0,
    0,
    0,
    0,
    0,
    0,
    0,
    0,
    0,
    0,
    0,
    0,
    0,
    0,
    0,
    0,
    0,
    0,
    0,
    0,
    0,
    0,
    0,
    0,
    0,
    0,
    0,
    0,
    0,
    0,
    0,
    0,
    0,
    0,
    0,
    0,
    0,
    0,
    0,
    0,
    0,
    0,
    0,
    0,
    0,
    0,
    0,
    0,
    0,
    0,
    0,
    0,
    0,
    0,
    0,
    0,
    0,
    0,
    0,
    0,
    0,
    0,
    0,
    0,
    0,
    0,
    0,
    0,
    0,
    0,
    0,
    0,
    0,
    0,
    0,
    0,
    0,
    0,
    0,
    0,
    0,
    0,
    0,
    0,
    0,
    0,
    0,
    0,
    0,
    0,
    0,
    0,
    0,
    0,
    0,
    0,
    0,
    0,
    0,
    0,
    0,
    0,
    0,
    0,
    0,
    0,
    0,
    0,
    0,
    0,
    0,
    0,
    0,
    0,
    0,
    0,
    0,
    0,
    0,
    0,
    0,
    0,
    0,
    0,
    0,
    0,
    0,
    0,
    0,
    0,
    0,
    0,
    0,
    0,
    0,
    0,
    0,
    0,
    0,
    0,
    0,
    0,
    0,
    0,
    0,
    0,
    0,
    0,
    0,
    0,
    0,
    0,
    0,
    0,
    0,
    0,
    0,
    0,
    0,
    0,
    0,
    0,
    0,
    0,
    0,
    0,
    0,
    0,
    0,
    0,
    0,
    0,
    0,
    0,
    0,
    0,
    0,
    0,
    0,
    0,
    0,
    0,
    0,
    0,
    0,
    0,
    0,
    0,
    0,
    0,
    0,
    0,
    0,
    0,
    0,
    0,
    0,
    0,
    0,
    0,
    0,
    0,
    0,
    0,
    0,
    0,
    0,
    0,
    0,
    0,
    0,
    0,
    0,
    0,
    0,
    0,
    0,
    0,
    0,
    0,
    0,
    0,
    0,
    0,
    0,
    0,
    0,
    0,
    0,
    0,
    0,
    0,
    0,
    0,
    0,
    0,
    0,
    0,
    0,
    0,
    0,
    0,
    0,
    0,
    0,
    0,
    0,
    0,
    0,
    0,
    0,
    0,
    0,
    0,
    0,
    0,
    0,
    0,
    0,
    0,
    0,
    0,
    0,
    0,
    0,
    0,
    0,
    0,
    0,
    0,
    0,
    0,
    0,
    0,
    0,
    0,
    0,
    0,
    0,
    0,
    0,
    0,
    0,
    0,
    0,
    0,
    0,
    0,
    0,
    0,
    0,
    0,
    0,
    0,
    0,
    0,
    0,
    0,
    0,
    0,
    0,
    0,
    0,
    0,
    0,
    0,
    0,
    0,
    0,
    0,
    0,
    0,
    0,
    0,
    0,
    0,
    0,
    0,
    0,
    0,
    0,
    0,
    0,
    0,
    0,
    0,
    0,
    0,
    0,
    0,
    0,
    0,
    0,
    0,
    0,
    0,
    0,
    0,
    0,
    0,
    0,
    0,
    0,
    0,
    0,
    0,
    0,
    0,
    0,
    0,
    0,
    0,
    0,
    0,
    0,
    0,
    0,
    0,
    0,
    0,
    0,
    0,
    0,
    0,
    0,
    0,
    0,
    0,
    0,
    0,
    0,
    0,
    0,
    0,
    0,
    0,
    0,
    0,
    0,
    0,
    0,
    0,
    0,
    0,
    0,
    0,
    0,
    0,
    0,
    0,
    0,
    0,
    0,
    0,
    0,
    0,
    0,
    0,
    0,
    0,
    0,
    0,
    0,
    0,
    0,
    0,
    0,
    0,
    0,
    0,
    0,
    0,
    0,
    0,
    0,
    0,
    0,
    0,
    0,
    0,
    0,
    0,
    0,
    0,
    0,
    0,
    0,
    0,
    0,
    0,
    0,
    0,
    0,
    0,
    0,
    0,
    0,
    0,
    0,
    0,
    0,
    0,
    0,
    0,
    0,
    0,
    0,
    0,
    0,
    0,
    0,
    0,
    0,
    0,
    0,
    0,
    0,
    0,
    0,
    0,
    0,
    0,
    0,
    0,
    0,
    0,
    0,
    0,
    0,
    0,
    0,
    0,
    0,
    0,
    0,
    0,
    0,
    0,
    0,
    0,
    0,
    0,
    0,
    0,
    0,
    0,
    0,
    0,
    0,
    0,
    0,
    0,
    0,
    0,
    0,
    0,
    0,
    0,
    0,
    0,
    0,
    0,
    0,
    0,
    0,
    0,
    0,
    0,
    0,
    0,
    0,
    0,
    0,
    0,
    0,
    0,
    0,
    0,
    0,
    0,
    0,
    0,
    0,
    0,
    0,
    0,
    0,
    0,
    0,
    0,
    0,
    0,
    0,
    0,
    0,
    0,
    0,
    0,
    0,
    0,
    0,
    0,
    0,
    0,
    0,
    0,
    0,
    0,
    0,
    0,
    0,
    0,
    0,
    0,
    0,
    0,
    0,
    0,
    0,
    0,
    0,
    0,
    0,
    0,
    0,
    0,
    0,
    0,
    0,
    0,
    0,
    0,
    0,
    0,
    0,
    0,
    0,
    0,
    0,
    0,
    0,
    0,
    0,
    0,
    0,
    0,
    0,
    0,
    0,
    0,
    0,
    0,
    0,
    0,
    0,
    0,
    0,
    0,
    0,
    0,
    0,
    0,
    0,
    0,
    0,
    0,
    0,
    0,
    0,
    0,
    0,
    0,
    0,
    0,
    0,
    0,
    0,
    0,
    0,
    0,
    0,
    0,
    0,
    0,
    0,
    0,
    0,
    0,
    0,
    0,
    0,
    0,
    0,
    0,
    0,
    0,
    0,
    0,
    0,
    0,
    0,
    0,
    0,
    0,
    0,
    0,
    0,
    0,
    0,
    0,
    0,
    0,
    0,
    0,
    0,
    0,
    0,
    0,
    0,
    0,
    0,
    0,
    0,
    0,
    0,
    0,
    0,
    0,
    0,
    0,
    0,
    0,
    0,
    0,
    0,
    0,
    0,
    0,
    0,
    0,
    0,
    0,
    0,
    0,
    0,
    0,
    0,
    0,
    0,
    0,
    0,
    0,
    0,
    0,
    0,
    0,
    0,
    0,
    0,
    0,
    0,
    0,
    0,
    0,
    0,
    0,
    0,
    0,
    0,
    0,
    0,
    0,
    0,
    0,
    0,
    0,
    0,
    0,
    0,
    0,
    0,
    0,
    0,
    0,
    0,
    0,
    0,
    0,
    0,
    0,
    0,
    0,
    0,
    0,
    0,
    0,
    0,
    0,
    0,
    0,
    0,
    0,
    0,
    0,
    0,
    0,
    0,
    0,
    0,
    0,
    0,
    0,
    0,
    0,
    0,
    0,
    0,
    0,
    0,
    0,
    0,
    0,
    0,
    0,
    0,
    0,
    0
   ],
   "height": 28,
   "width": 41,
   "name": "start",
   "opacity": 1,
   "type": "tilelayer",
   "visible": false,
   "x": 0,
   "y": 0
  },
  {
   "data": [
    1741,
    1741,
    1741,
    1741,
    1741,
    1741,
    1741,
    1741,
    1741,
    1741,
    1741,
    1741,
    1741,
    1741,
    1741,
    1741,
    1741,
    1741,
    1741,
    1741,
    1741,
    1741,
    1741,
    1741,
    1741,
    1741,
    1741,
    1741,
    1741,
    1741,
    1741,
    1741,
    1741,
    1741,
    1741,
    1741,
    1741,
    1741,
    1741,
    1741,
    1741,
    1741,
    1741,
    1741,
    1741,
    1741,
    1741,
    1741,
    1741,
    1741,
    1741,
    1741,
    1741,
    1741,
    1741,
    1741,
    1741,
    1741,
    1741,
    1741,
    1741,
    1741,
    1741,
    1741,
    1741,
    1741,
    1741,
    1741,
    1741,
    1741,
    1741,
    1741,
    1741,
    1741,
    1741,
    1741,
    1741,
    1741,
    1741,
    1741,
    1741,
    1741,
    1741,
    1741,
    1741,
    1741,
    1741,
    1741,
    1741,
    1741,
    1741,
    1741,
    1741,
    1741,
    1741,
    1741,
    1741,
    1741,
    1741,
    1741,
    1741,
    1741,
    1741,
    1741,
    1741,
    1741,
    1741,
    1741,
    1741,
    1741,
    1741,
    1741,
    1741,
    1741,
    1741,
    1741,
    1741,
    1741,
    1741,
    1741,
    1741,
    1741,
    1741,
    1741,
    1741,
    1741,
    1741,
    1741,
    1741,
    1741,
    1741,
    1741,
    1741,
    1741,
    1741,
    1741,
    1741,
    1741,
    1741,
    1741,
    1741,
    1741,
    1741,
    1741,
    1741,
    1741,
    1741,
    1741,
    1741,
    1741,
    1741,
    1741,
    1741,
    1741,
    1741,
    1741,
    1741,
    1741,
    1741,
    1741,
    1741,
    1741,
    1741,
    1741,
    1741,
    136,
    136,
    136,
    136,
    136,
    136,
    136,
    136,
    1741,
    139,
    139,
    139,
    139,
    139,
    139,
    139,
    139,
    1741,
    136,
    136,
    136,
    136,
    136,
    136,
    136,
    136,
    1741,
    139,
    139,
    139,
    139,
    139,
    139,
    139,
    139,
    1741,
    1741,
    1741,
    1741,
    1741,
    1741,
    136,
    136,
    136,
    136,
    136,
    136,
    136,
    136,
    1741,
    139,
    139,
    139,
    139,
    139,
    139,
    139,
    139,
    1741,
    136,
    136,
    136,
    136,
    136,
    136,
    136,
    136,
    1741,
    139,
    139,
    139,
    139,
    139,
    139,
    139,
    139,
    1741,
    1741,
    1741,
    1741,
    1741,
    1741,
    136,
    136,
    136,
    136,
    136,
    136,
    136,
    136,
    1741,
    139,
    139,
    139,
    139,
    139,
    139,
    139,
    139,
    1741,
    136,
    136,
    136,
    136,
    136,
    136,
    136,
    136,
    1741,
    139,
    139,
    139,
    139,
    139,
    139,
    139,
    139,
    1741,
    1741,
    1741,
    1741,
    1741,
    1741,
    136,
    136,
    136,
    136,
    136,
    136,
    136,
    136,
    1741,
    139,
    139,
    139,
    139,
    139,
    139,
    139,
    139,
    1741,
    136,
    136,
    136,
    136,
    136,
    136,
    136,
    136,
    1741,
    139,
    139,
    139,
    139,
    139,
    139,
    139,
    139,
    1741,
    1741,
    1741,
    1741,
    1741,
    1741,
    136,
    136,
    136,
    136,
    136,
    136,
    136,
    136,
    1741,
    139,
    139,
    139,
    139,
    139,
    139,
    139,
    139,
    1741,
    136,
    136,
    136,
    136,
    136,
    136,
    136,
    136,
    1741,
    139,
    139,
    139,
    139,
    139,
    139,
    139,
    139,
    1741,
    1741,
    1741,
    1741,
    1741,
    1741,
    136,
    136,
    136,
    136,
    186,
    136,
    136,
    136,
    1741,
    139,
    139,
    139,
    139,
    186,
    139,
    139,
    139,
    1741,
    136,
    136,
    136,
    136,
    186,
    136,
    136,
    136,
    1741,
    139,
    139,
    139,
    139,
    186,
    139,
    139,
    139,
    1741,
    1741,
    1741,
    1741,
    1741,
    1741,
    1741,
    1741,
    1741,
    1741,
    1741,
    1741,
    1741,
    1741,
    1741,
    1741,
    1741,
    1741,
    1741,
    1741,
    1741,
    1741,
    1741,
    1741,
    1741,
    1741,
    1741,
    1741,
    1741,
    1741,
    1741,
    1741,
    1741,
    1741,
    1741,
    1741,
    1741,
    1741,
    1741,
    1741,
    1741,
    1741,
    1741,
    1741,
    1741,
    1741,
    1741,
    136,
    136,
    136,
    136,
    136,
    136,
    136,
    136,
    1741,
    139,
    139,
    139,
    139,
    139,
    139,
    139,
    139,
    1741,
    136,
    136,
    136,
    136,
    136,
    136,
    136,
    136,
    1741,
    139,
    139,
    139,
    139,
    139,
    139,
    139,
    139,
    1741,
    1741,
    1741,
    1741,
    1741,
    1741,
    136,
    136,
    136,
    136,
    136,
    136,
    136,
    136,
    1741,
    139,
    139,
    139,
    139,
    139,
    139,
    139,
    139,
    1741,
    136,
    136,
    136,
    136,
    136,
    136,
    136,
    136,
    1741,
    139,
    139,
    139,
    139,
    139,
    139,
    139,
    139,
    1741,
    1741,
    1741,
    1741,
    1741,
    1741,
    136,
    136,
    136,
    136,
    136,
    136,
    136,
    136,
    1741,
    139,
    139,
    139,
    139,
    139,
    139,
    139,
    139,
    1741,
    136,
    136,
    136,
    136,
    136,
    136,
    136,
    136,
    1741,
    139,
    139,
    139,
    139,
    139,
    139,
    139,
    139,
    1741,
    1741,
    1741,
    1741,
    1741,
    1741,
    136,
    136,
    136,
    136,
    136,
    136,
    136,
    136,
    1741,
    139,
    139,
    139,
    139,
    139,
    139,
    139,
    139,
    1741,
    136,
    136,
    136,
    136,
    136,
    136,
    136,
    136,
    1741,
    139,
    139,
    139,
    139,
    139,
    139,
    139,
    139,
    1741,
    1741,
    1741,
    1741,
    1741,
    1741,
    136,
    136,
    136,
    136,
    136,
    136,
    136,
    136,
    1741,
    139,
    139,
    139,
    139,
    139,
    139,
    139,
    139,
    1741,
    136,
    136,
    136,
    136,
    136,
    136,
    136,
    136,
    1741,
    139,
    139,
    139,
    139,
    139,
    139,
    139,
    139,
    1741,
    1741,
    1741,
    1741,
    1741,
    1741,
    136,
    136,
    136,
    136,
    186,
    136,
    136,
    136,
    1741,
    139,
    139,
    139,
    139,
    186,
    139,
    139,
    139,
    1741,
    136,
    136,
    136,
    136,
    186,
    136,
    136,
    136,
    1741,
    139,
    139,
    139,
    139,
    186,
    139,
    139,
    139,
    1741,
    1741,
    1741,
    1741,
    1741,
    1741,
    1741,
    1741,
    1741,
    1741,
    1741,
    1741,
    1741,
    1741,
    1741,
    1741,
    1741,
    1741,
    1741,
    1741,
    1741,
    1741,
    1741,
    1741,
    1741,
    1741,
    1741,
    1741,
    1741,
    1741,
    1741,
    1741,
    1741,
    1741,
    1741,
    1741,
    1741,
    1741,
    1741,
    1741,
    1741,
    1741,
    1741,
    1741,
    1741,
    1741,
    1741,
    136,
    136,
    136,
    136,
    136,
    136,
    136,
    136,
    1741,
    139,
    139,
    139,
    139,
    139,
    139,
    139,
    139,
    1741,
    136,
    136,
    136,
    136,
    136,
    136,
    136,
    136,
    1741,
    1741,
    1741,
    1741,
    1741,
    1741,
    1741,
    1741,
    1741,
    1741,
    1741,
    1741,
    1741,
    1741,
    1741,
    136,
    136,
    136,
    136,
    136,
    136,
    136,
    136,
    1741,
    139,
    139,
    139,
    139,
    139,
    139,
    139,
    139,
    1741,
    136,
    136,
    136,
    136,
    136,
    136,
    136,
    136,
    1741,
    1741,
    1741,
    1741,
    1741,
    1741,
    1741,
    1741,
    1741,
    1741,
    1741,
    1741,
    1741,
    1741,
    1741,
    136,
    136,
    136,
    136,
    136,
    136,
    136,
    136,
    1741,
    139,
    139,
    139,
    139,
    139,
    139,
    139,
    139,
    1741,
    136,
    136,
    136,
    136,
    136,
    136,
    136,
    136,
    1741,
    1741,
    1741,
    1741,
    1741,
    1741,
    1741,
    1741,
    1741,
    1741,
    1741,
    1741,
    1741,
    1741,
    1741,
    136,
    136,
    136,
    136,
    136,
    136,
    136,
    136,
    1741,
    139,
    139,
    139,
    139,
    139,
    139,
    139,
    139,
    1741,
    136,
    136,
    136,
    136,
    136,
    136,
    136,
    136,
    1741,
    1741,
    1741,
    1741,
    1741,
    1741,
    1741,
    1741,
    1741,
    1741,
    1741,
    1741,
    1741,
    1741,
    1741,
    136,
    136,
    136,
    136,
    136,
    136,
    136,
    136,
    1741,
    139,
    139,
    139,
    139,
    139,
    139,
    139,
    139,
    1741,
    136,
    136,
    136,
    136,
    136,
    136,
    136,
    136,
    1741,
    1741,
    1741,
    1741,
    1741,
    1741,
    1741,
    1741,
    1741,
    1741,
    1741,
    1741,
    1741,
    1741,
    1741,
    136,
    136,
    136,
    136,
    186,
    136,
    136,
    136,
    1741,
    139,
    139,
    139,
    139,
    186,
    139,
    139,
    139,
    1741,
    136,
    136,
    136,
    136,
    186,
    136,
    136,
    136,
    1741,
    1741,
    1741,
    1741,
    1741,
    1741,
    1741,
    1741,
    1741,
    1741,
    1741,
    1741,
    1741,
    1741,
    1741,
    1741,
    1741,
    1741,
    1741,
    1741,
    1741,
    1741,
    1741,
    1741,
    1741,
    1741,
    1741,
    1741,
    1741,
    1741,
    1741,
    1741,
    1741,
    1741,
    1741,
    1741,
    1741,
    1741,
    1741,
    1741,
    1741,
    1741,
    1741,
    1741,
    1741,
    1741,
    1741,
    1741,
    1741,
    1741,
    1741,
    1741,
    1741,
    1741,
    1741,
    1741,
    1741,
    1741,
    1741,
    1741,
    1741,
    1741,
    1741,
    1741,
    1741,
    1741,
    1741,
    1741,
    1741,
    1741,
    1741,
    1741,
    1741,
    1741,
    1741,
    1741,
    1741,
    1741,
    1741,
    1741,
    1741,
    1741,
    1741,
    1741,
    1741,
    1741,
    1741,
    1741,
    1741,
    1741,
    1741,
    1741,
    1741,
    1741,
    1741,
    1741,
    1741,
    1741,
    1741,
    1741,
    1741,
    1741,
    1741,
    1741,
    1741,
    1741,
    1741,
    1741,
    1741,
    1741,
    1741,
    1741,
    1741,
    1741,
    1741,
    1741,
    1741,
    1741,
    1741,
    1741,
    1741,
    1741,
    1741,
    1741,
    1741,
    1741,
    1741,
    1741,
    1741,
    1741,
    1741,
    1741,
    1741,
    1741,
    1741,
    1741,
    1741,
    1741,
    1741,
    1741,
    1741,
    1741,
    1741,
    1741,
    1741,
    1741,
    1741,
    1741,
    1741,
    1741,
    1741,
    1741,
    1741,
    1741,
    1741,
    1741,
    1741,
    1741,
    1741,
    1741,
    1741,
    1741,
    1741,
    1741,
    1741,
    1741,
    1741,
    1741,
    1741,
    1741,
    1741,
    1741,
    1741,
    1741,
    1741,
    1741,
    1741,
    1741
   ],
   "height": 28,
   "width": 41,
   "name": "ground",
   "opacity": 1,
   "type": "tilelayer",
   "visible": true,
   "x": 0,
   "y": 0
  },
  {
   "data": [
    0,
    0,
    0,
    0,
    0,
    0,
    0,
    0,
    0,
    0,
    0,
    0,
    0,
    0,
    0,
    0,
    0,
    0,
    0,
    0,
    0,
    0,
    0,
    0,
    0,
    0,
    0,
    0,
    0,
    0,
    0,
    0,
    0,
    0,
    0,
    0,
    0,
    0,
    0,
    0,
    0,
    0,
    0,
    0,
    0,
    0,
    0,
    0,
    0,
    0,
    0,
    0,
    0,
    0,
    0,
    0,
    0,
    0,
    0,
    0,
    0,
    0,
    0,
    0,
    0,
    0,
    0,
    0,
    0,
    0,
    0,
    0,
    0,
    0,
    0,
    0,
    0,
    0,
    0,
    0,
    0,
    0,
    0,
    0,
    0,
    0,
    0,
    0,
    0,
    0,
    0,
    0,
    0,
    0,
    0,
    0,
    0,
    0,
    0,
    0,
    0,
    0,
    0,
    0,
    0,
    0,
    0,
    0,
    0,
    0,
    0,
    0,
    0,
    0,
    0,
    0,
    0,
    0,
    0,
    0,
    0,
    0,
    0,
    0,
    0,
    0,
    0,
    0,
    0,
    0,
    0,
    0,
    0,
    0,
    0,
    0,
    0,
    0,
    0,
    0,
    0,
    0,
    0,
    0,
    0,
    0,
    0,
    0,
    0,
    0,
    0,
    0,
    0,
    0,
    0,
    0,
    0,
    0,
    0,
    0,
    0,
    0,
    0,
    0,
    0,
    110,
    111,
    111,
    111,
    111,
    111,
    111,
    112,
    0,
    110,
    111,
    111,
    111,
    111,
    111,
    111,
    112,
    0,
    110,
    111,
    111,
    111,
    111,
    111,
    111,
    112,
    0,
    110,
    111,
    111,
    111,
    111,
    111,
    111,
    112,
    0,
    0,
    0,
    0,
    0,
    0,
    134,
    0,
    0,
    0,
    0,
    0,
    0,
    135,
    0,
    134,
    0,
    0,
    0,
    0,
    0,
    0,
    135,
    0,
    134,
    0,
    0,
    0,
    0,
    0,
    0,
    135,
    0,
    134,
    0,
    0,
    0,
    0,
    0,
    0,
    135,
    0,
    0,
    0,
    0,
    0,
    0,
    134,
    0,
    0,
    0,
    0,
    0,
    0,
    135,
    0,
    134,
    0,
    0,
    0,
    0,
    0,
    0,
    135,
    0,
    134,
    0,
    0,
    0,
    0,
    0,
    0,
    135,
    0,
    134,
    0,
    0,
    0,
    0,
    0,
    0,
    135,
    0,
    0,
    0,
    0,
    0,
    0,
    134,
    0,
    0,
    0,
    0,
    0,
    0,
    135,
    0,
    134,
    0,
    0,
    0,
    0,
    0,
    0,
    135,
    0,
    134,
    0,
    0,
    0,
    0,
    0,
    0,
    135,
    0,
    134,
    0,
    0,
    0,
    0,
    0,
    0,
    135,
    0,
    0,
    0,
    0,
    0,
    0,
    134,
    0,
    0,
    0,
    0,
    0,
    0,
    135,
    0,
    134,
    0,
    0,
    0,
    0,
    0,
    0,
    135,
    0,
    134,
    0,
    0,
    0,
    0,
    0,
    0,
    135,
    0,
    134,
    0,
    0,
    0,
    0,
    0,
    0,
    135,
    0,
    0,
    0,
    0,
    0,
    0,
    160,
    161,
    161,
    0,
    0,
    161,
    161,
    162,
    0,
    160,
    161,
    161,
    0,
    0,
    161,
    161,
    162,
    0,
    160,
    161,
    161,
    0,
    0,
    161,
    161,
    162,
    0,
    160,
    161,
    161,
    0,
    0,
    161,
    161,
    162,
    0,
    0,
    0,
    0,
    0,
    0,
    0,
    0,
    0,
    0,
    0,
    0,
    0,
    0,
    0,
    0,
    0,
    0,
    0,
    0,
    0,
    0,
    0,
    0,
    0,
    0,
    0,
    0,
    0,
    0,
    0,
    0,
    0,
    0,
    0,
    0,
    0,
    0,
    0,
    0,
    0,
    0,
    0,
    0,
    0,
    0,
    0,
    110,
    111,
    111,
    111,
    111,
    111,
    111,
    112,
    0,
    110,
    111,
    111,
    111,
    111,
    111,
    111,
    112,
    0,
    110,
    111,
    111,
    111,
    111,
    111,
    111,
    112,
    0,
    110,
    111,
    111,
    111,
    111,
    111,
    111,
    112,
    0,
    0,
    0,
    0,
    0,
    0,
    134,
    0,
    0,
    0,
    0,
    0,
    0,
    135,
    0,
    134,
    0,
    0,
    0,
    0,
    0,
    0,
    135,
    0,
    134,
    0,
    0,
    0,
    0,
    0,
    0,
    135,
    0,
    134,
    0,
    0,
    0,
    0,
    0,
    0,
    135,
    0,
    0,
    0,
    0,
    0,
    0,
    134,
    0,
    0,
    0,
    0,
    0,
    0,
    135,
    0,
    134,
    0,
    0,
    0,
    0,
    0,
    0,
    135,
    0,
    134,
    0,
    0,
    0,
    0,
    0,
    0,
    135,
    0,
    134,
    0,
    0,
    0,
    0,
    0,
    0,
    135,
    0,
    0,
    0,
    0,
    0,
    0,
    134,
    0,
    0,
    0,
    0,
    0,
    0,
    135,
    0,
    134,
    0,
    0,
    0,
    0,
    0,
    0,
    135,
    0,
    134,
    0,
    0,
    0,
    0,
    0,
    0,
    135,
    0,
    134,
    0,
    0,
    0,
    0,
    0,
    0,
    135,
    0,
    0,
    0,
    0,
    0,
    0,
    134,
    0,
    0,
    0,
    0,
    0,
    0,
    135,
    0,
    134,
    0,
    0,
    0,
    0,
    0,
    0,
    135,
    0,
    134,
    0,
    0,
    0,
    0,
    0,
    0,
    135,
    0,
    134,
    0,
    0,
    0,
    0,
    0,
    0,
    135,
    0,
    0,
    0,
    0,
    0,
    0,
    160,
    161,
    161,
    0,
    0,
    161,
    161,
    162,
    0,
    160,
    161,
    161,
    0,
    0,
    161,
    161,
    162,
    0,
    160,
    161,
    161,
    0,
    0,
    161,
    161,
    162,
    0,
    160,
    161,
    161,
    0,
    0,
    161,
    161,
    162,
    0,
    0,
    0,
    0,
    0,
    0,
    0,
    0,
    0,
    0,
    0,
    0,
    0,
    0,
    0,
    0,
    0,
    0,
    0,
    0,
    0,
    0,
    0,
    0,
    0,
    0,
    0,
    0,
    0,
    0,
    0,
    0,
    0,
    0,
    0,
    0,
    0,
    0,
    0,
    0,
    0,
    0,
    0,
    0,
    0,
    0,
    0,
    110,
    111,
    111,
    111,
    111,
    111,
    111,
    112,
    0,
    110,
    111,
    111,
    111,
    111,
    111,
    111,
    112,
    0,
    110,
    111,
    111,
    111,
    111,
    111,
    111,
    112,
    0,
    0,
    0,
    0,
    0,
    0,
    0,
    0,
    0,
    0,
    0,
    0,
    0,
    0,
    0,
    134,
    0,
    0,
    0,
    0,
    0,
    0,
    135,
    0,
    134,
    0,
    0,
    0,
    0,
    0,
    0,
    135,
    0,
    134,
    0,
    0,
    0,
    0,
    0,
    0,
    135,
    0,
    0,
    0,
    0,
    0,
    0,
    0,
    0,
    0,
    0,
    0,
    0,
    0,
    0,
    0,
    134,
    0,
    0,
    0,
    0,
    0,
    0,
    135,
    0,
    134,
    0,
    0,
    0,
    0,
    0,
    0,
    135,
    0,
    134,
    0,
    0,
    0,
    0,
    0,
    0,
    135,
    0,
    0,
    0,
    0,
    0,
    0,
    0,
    0,
    0,
    0,
    0,
    0,
    0,
    0,
    0,
    134,
    0,
    0,
    0,
    0,
    0,
    0,
    135,
    0,
    134,
    0,
    0,
    0,
    0,
    0,
    0,
    135,
    0,
    134,
    0,
    0,
    0,
    0,
    0,
    0,
    135,
    0,
    0,
    0,
    0,
    0,
    0,
    0,
    0,
    0,
    0,
    0,
    0,
    0,
    0,
    0,
    134,
    0,
    0,
    0,
    0,
    0,
    0,
    135,
    0,
    134,
    0,
    0,
    0,
    0,
    0,
    0,
    135,
    0,
    134,
    0,
    0,
    0,
    0,
    0,
    0,
    135,
    0,
    0,
    0,
    0,
    0,
    0,
    0,
    0,
    0,
    0,
    0,
    0,
    0,
    0,
    0,
    160,
    161,
    161,
    0,
    0,
    161,
    161,
    162,
    0,
    160,
    161,
    161,
    0,
    0,
    161,
    161,
    162,
    0,
    160,
    161,
    161,
    0,
    0,
    161,
    161,
    162,
    0,
    0,
    0,
    0,
    0,
    0,
    0,
    0,
    0,
    0,
    0,
    0,
    0,
    0,
    0,
    0,
    0,
    0,
    0,
    0,
    0,
    0,
    0,
    0,
    0,
    0,
    0,
    0,
    0,
    0,
    0,
    0,
    0,
    0,
    0,
    0,
    0,
    0,
    0,
    0,
    0,
    0,
    0,
    0,
    0,
    0,
    0,
    0,
    0,
    0,
    0,
    0,
    0,
    0,
    0,
    0,
    0,
    0,
    0,
    0,
    0,
    0,
    0,
    0,
    0,
    0,
    0,
    0,
    0,
    0,
    0,
    0,
    0,
    0,
    0,
    0,
    0,
    0,
    0,
    0,
    0,
    0,
    0,
    0,
    0,
    0,
    0,
    0,
    0,
    0,
    0,
    0,
    0,
    0,
    0,
    0,
    0,
    0,
    0,
    0,
    0,
    0,
    0,
    0,
    0,
    0,
    0,
    0,
    0,
    0,
    0,
    0,
    0,
    0,
    0,
    0,
    0,
    0,
    0,
    0,
    0,
    0,
    0,
    0,
    0,
    0,
    0,
    0,
    0,
    0,
    0,
    0,
    0,
    0,
    0,
    0,
    0,
    0,
    0,
    0,
    0,
    0,
    0,
    0,
    0,
    0,
    0,
    0,
    0,
    0,
    0,
    0,
    0,
    0,
    0,
    0,
    0,
    0,
    0,
    0,
    0,
    0,
    0,
    0,
    0,
    0,
    0,
    0,
    0,
    0,
    0,
    0,
    0,
    0,
    0,
    0,
    0,
    0
   ],
   "height": 28,
   "width": 41,
   "name": "walls",
   "opacity": 1,
   "type": "tilelayer",
   "visible": true,
   "x": 0,
   "y": 0
  },
  {
   "data": [
    0,
    0,
    0,
    0,
    0,
    0,
    0,
    0,
    0,
    0,
    0,
    0,
    0,
    0,
    0,
    0,
    0,
    0,
    0,
    0,
    0,
    0,
    0,
    0,
    0,
    0,
    0,
    0,
    0,
    0,
    0,
    0,
    0,
    0,
    0,
    0,
    0,
    0,
    0,
    0,
    0,
    0,
    0,
    0,
    0,
    0,
    0,
    0,
    0,
    0,
    0,
    0,
    0,
    0,
    0,
    0,
    0,
    0,
    0,
    0,
    0,
    0,
    0,
    0,
    0,
    0,
    0,
    0,
    0,
    0,
    0,
    0,
    0,
    0,
    0,
    0,
    0,
    0,
    0,
    0,
    0,
    0,
    0,
    0,
    0,
    0,
    0,
    0,
    0,
    0,
    0,
    0,
    0,
    0,
    0,
    0,
    0,
    0,
    0,
    0,
    0,
    0,
    0,
    0,
    0,
    0,
    0,
    0,
    0,
    0,
    0,
    0,
    0,
    0,
    0,
    0,
    0,
    0,
    0,
    0,
    0,
    0,
    0,
    0,
    0,
    0,
    0,
    0,
    0,
    0,
    0,
    0,
    0,
    0,
    0,
    0,
    0,
    0,
    0,
    0,
    0,
    0,
    0,
    0,
    0,
    0,
    0,
    0,
    0,
    0,
    0,
    0,
    0,
    0,
    0,
    0,
    0,
    0,
    0,
    0,
    0,
    0,
    0,
    0,
    0,
    3,
    3,
    3,
    3,
    3,
    3,
    3,
    3,
    0,
    3,
    3,
    3,
    3,
    3,
    3,
    3,
    3,
    0,
    3,
    3,
    3,
    3,
    3,
    3,
    3,
    3,
    0,
    3,
    3,
    3,
    3,
    3,
    3,
    3,
    3,
    0,
    0,
    0,
    0,
    0,
    0,
    3,
    0,
    0,
    0,
    0,
    0,
    0,
    3,
    0,
    3,
    0,
    0,
    0,
    0,
    0,
    0,
    3,
    0,
    3,
    0,
    0,
    0,
    0,
    0,
    0,
    3,
    0,
    3,
    0,
    0,
    0,
    0,
    0,
    0,
    3,
    0,
    0,
    0,
    0,
    0,
    0,
    3,
    0,
    0,
    0,
    0,
    0,
    0,
    3,
    0,
    3,
    0,
    0,
    0,
    0,
    0,
    0,
    3,
    0,
    3,
    0,
    0,
    0,
    0,
    0,
    0,
    3,
    0,
    3,
    0,
    0,
    0,
    0,
    0,
    0,
    3,
    0,
    0,
    0,
    0,
    0,
    0,
    3,
    0,
    0,
    0,
    0,
    0,
    0,
    3,
    0,
    3,
    0,
    0,
    0,
    0,
    0,
    0,
    3,
    0,
    3,
    0,
    0,
    0,
    0,
    0,
    0,
    3,
    0,
    3,
    0,
    0,
    0,
    0,
    0,
    0,
    3,
    0,
    0,
    0,
    0,
    0,
    0,
    3,
    0,
    0,
    0,
    0,
    0,
    0,
    3,
    0,
    3,
    0,
    0,
    0,
    0,
    0,
    0,
    3,
    0,
    3,
    0,
    0,
    0,
    0,
    0,
    0,
    3,
    0,
    3,
    0,
    0,
    0,
    0,
    0,
    0,
    3,
    0,
    0,
    0,
    0,
    0,
    0,
    3,
    3,
    3,
    0,
    0,
    3,
    3,
    3,
    0,
    3,
    3,
    3,
    0,
    0,
    3,
    3,
    3,
    0,
    3,
    3,
    3,
    0,
    0,
    3,
    3,
    3,
    0,
    3,
    3,
    3,
    0,
    0,
    3,
    3,
    3,
    0,
    0,
    0,
    0,
    0,
    0,
    0,
    0,
    0,
    0,
    0,
    0,
    0,
    0,
    0,
    0,
    0,
    0,
    0,
    0,
    0,
    0,
    0,
    0,
    0,
    0,
    0,
    0,
    0,
    0,
    0,
    0,
    0,
    0,
    0,
    0,
    0,
    0,
    0,
    0,
    0,
    0,
    0,
    0,
    0,
    0,
    0,
    3,
    3,
    3,
    3,
    3,
    3,
    3,
    3,
    0,
    3,
    3,
    3,
    3,
    3,
    3,
    3,
    3,
    0,
    3,
    3,
    3,
    3,
    3,
    3,
    3,
    3,
    0,
    3,
    3,
    3,
    3,
    3,
    3,
    3,
    3,
    0,
    0,
    0,
    0,
    0,
    0,
    3,
    0,
    0,
    0,
    0,
    0,
    0,
    3,
    0,
    3,
    0,
    0,
    0,
    0,
    0,
    0,
    3,
    0,
    3,
    0,
    0,
    0,
    0,
    0,
    0,
    3,
    0,
    3,
    0,
    0,
    0,
    0,
    0,
    0,
    3,
    0,
    0,
    0,
    0,
    0,
    0,
    3,
    0,
    0,
    0,
    0,
    0,
    0,
    3,
    0,
    3,
    0,
    0,
    0,
    0,
    0,
    0,
    3,
    0,
    3,
    0,
    0,
    0,
    0,
    0,
    0,
    3,
    0,
    3,
    0,
    0,
    0,
    0,
    0,
    0,
    3,
    0,
    0,
    0,
    0,
    0,
    0,
    3,
    0,
    0,
    0,
    0,
    0,
    0,
    3,
    0,
    3,
    0,
    0,
    0,
    0,
    0,
    0,
    3,
    0,
    3,
    0,
    0,
    0,
    0,
    0,
    0,
    3,
    0,
    3,
    0,
    0,
    0,
    0,
    0,
    0,
    3,
    0,
    0,
    0,
    0,
    0,
    0,
    3,
    0,
    0,
    0,
    0,
    0,
    0,
    3,
    0,
    3,
    0,
    0,
    0,
    0,
    0,
    0,
    3,
    0,
    3,
    0,
    0,
    0,
    0,
    0,
    0,
    3,
    0,
    3,
    0,
    0,
    0,
    0,
    0,
    0,
    3,
    0,
    0,
    0,
    0,
    0,
    0,
    3,
    3,
    3,
    0,
    0,
    3,
    3,
    3,
    0,
    3,
    3,
    3,
    0,
    0,
    3,
    3,
    3,
    0,
    3,
    3,
    3,
    0,
    0,
    3,
    3,
    3,
    0,
    3,
    3,
    3,
    0,
    0,
    3,
    3,
    3,
    0,
    0,
    0,
    0,
    0,
    0,
    0,
    0,
    0,
    0,
    0,
    0,
    0,
    0,
    0,
    0,
    0,
    0,
    0,
    0,
    0,
    0,
    0,
    0,
    0,
    0,
    0,
    0,
    0,
    0,
    0,
    0,
    0,
    0,
    0,
    0,
    0,
    0,
    0,
    0,
    0,
    0,
    0,
    0,
    0,
    0,
    0,
    3,
    3,
    3,
    3,
    3,
    3,
    3,
    3,
    0,
    3,
    3,
    3,
    3,
    3,
    3,
    3,
    3,
    0,
    3,
    3,
    3,
    3,
    3,
    3,
    3,
    3,
    0,
    0,
    0,
    0,
    0,
    0,
    0,
    0,
    0,
    0,
    0,
    0,
    0,
    0,
    0,
    3,
    0,
    0,
    0,
    0,
    0,
    0,
    3,
    0,
    3,
    0,
    0,
    0,
    0,
    0,
    0,
    3,
    0,
    3,
    0,
    0,
    0,
    0,
    0,
    0,
    3,
    0,
    0,
    0,
    0,
    0,
    0,
    0,
    0,
    0,
    0,
    0,
    0,
    0,
    0,
    0,
    3,
    0,
    0,
    0,
    0,
    0,
    0,
    3,
    0,
    3,
    0,
    0,
    0,
    0,
    0,
    0,
    3,
    0,
    3,
    0,
    0,
    0,
    0,
    0,
    0,
    3,
    0,
    0,
    0,
    0,
    0,
    0,
    0,
    0,
    0,
    0,
    0,
    0,
    0,
    0,
    0,
    3,
    0,
    0,
    0,
    0,
    0,
    0,
    3,
    0,
    3,
    0,
    0,
    0,
    0,
    0,
    0,
    3,
    0,
    3,
    0,
    0,
    0,
    0,
    0,
    0,
    3,
    0,
    0,
    0,
    0,
    0,
    0,
    0,
    0,
    0,
    0,
    0,
    0,
    0,
    0,
    0,
    3,
    0,
    0,
    0,
    0,
    0,
    0,
    3,
    0,
    3,
    0,
    0,
    0,
    0,
    0,
    0,
    3,
    0,
    3,
    0,
    0,
    0,
    0,
    0,
    0,
    3,
    0,
    0,
    0,
    0,
    0,
    0,
    0,
    0,
    0,
    0,
    0,
    0,
    0,
    0,
    0,
    3,
    3,
    3,
    0,
    0,
    3,
    3,
    3,
    0,
    3,
    3,
    3,
    0,
    0,
    3,
    3,
    3,
    0,
    3,
    3,
    3,
    0,
    0,
    3,
    3,
    3,
    0,
    0,
    0,
    0,
    0,
    0,
    0,
    0,
    0,
    0,
    0,
    0,
    0,
    0,
    0,
    0,
    0,
    0,
    0,
    0,
    0,
    0,
    0,
    0,
    0,
    0,
    0,
    0,
    0,
    0,
    0,
    0,
    0,
    0,
    0,
    0,
    0,
    0,
    0,
    0,
    0,
    0,
    0,
    0,
    0,
    0,
    0,
    0,
    0,
    0,
    0,
    0,
    0,
    0,
    0,
    0,
    0,
    0,
    0,
    0,
    0,
    0,
    0,
    0,
    0,
    0,
    0,
    0,
    0,
    0,
    0,
    0,
    0,
    0,
    0,
    0,
    0,
    0,
    0,
    0,
    0,
    0,
    0,
    0,
    0,
    0,
    0,
    0,
    0,
    0,
    0,
    0,
    0,
    0,
    0,
    0,
    0,
    0,
    0,
    0,
    0,
    0,
    0,
    0,
    0,
    0,
    0,
    0,
    0,
    0,
    0,
    0,
    0,
    0,
    0,
    0,
    0,
    0,
    0,
    0,
    0,
    0,
    0,
    0,
    0,
    0,
    0,
    0,
    0,
    0,
    0,
    0,
    0,
    0,
    0,
    0,
    0,
    0,
    0,
    0,
    0,
    0,
    0,
    0,
    0,
    0,
    0,
    0,
    0,
    0,
    0,
    0,
    0,
    0,
    0,
    0,
    0,
    0,
    0,
    0,
    0,
    0,
    0,
    0,
    0,
    0,
    0,
    0,
    0,
    0,
    0,
    0,
    0,
    0,
    0,
    0,
    0,
    0
   ],
   "height": 28,
   "width": 41,
   "name": "collisions",
   "opacity": 1,
   "type": "tilelayer",
   "visible": false,
   "x": 0,
   "y": 0
  },
  {
   "id": 50,
   "name": "floorLayer",
   "type": "objectgroup",
   "draworder": "topdown",
   "objects": [
    {
     "id": 2,
     "name": "1-hof-einfahrt",
     "type": "area",
     "x": 32,
     "y": 128,
     "width": 256,
     "height": 192,
     "rotation": 0,
     "visible": true,
     "properties": [
      {
       "name": "name",
       "type": "string",
       "value": "Einfahrt"
      }
     ]
    },
    {
     "id": 4,
     "name": "1-hof-garage-1",
     "type": "area",
     "x": 320,
     "y": 128,
     "width": 256,
     "height": 192,
     "rotation": 0,
     "visible": true,
     "properties": [
      {
       "name": "name",
       "type": "string",
       "value": "Garage 1 (will Kpi mieten, langfristig Hauslager)"
      }
     ]
    },
    {
     "id": 6,
     "name": "1-hof-garage-2",
     "type": "area",
     "x": 608,
     "y": 128,
     "width": 256,
     "height": 192,
     "rotation": 0,
     "visible": true,
     "properties": [
      {
       "name": "name",
       "type": "string",
       "value": "Garage 2 (Georgs Garage, langefristig Textil lager)"
      }
     ]
    },
    {
     "id": 8,
     "name": "1-hof-garage-3",
     "type": "area",
     "x": 896,
     "y": 128,
     "width": 256,
     "height": 192,
     "rotation": 0,
     "visible": true,
     "properties": [
      {
       "name": "name",
       "type": "string",
       "value": "Garage 3 (mittelfristig Töpferei)"
      }
     ]
    },
    {
     "id": 10,
     "name": "1-hof-garage-4",
     "type": "area",
     "x": 32,
     "y": 352,
     "width": 256,
     "height": 192,
     "rotation": 0,
     "visible": true,
     "properties": [
      {
       "name": "name",
       "type": "string",
       "value": "Garage 4 (zusammengelegt mit Garage 5 langfristig Druckwerkstatt)"
      }
     ]
    },
    {
     "id": 12,
     "name": "1-hof-garage-5",
     "type": "area",
     "x": 320,
     "y": 352,
     "width": 256,
     "height": 192,
     "rotation": 0,
     "visible": true,
     "properties": [
      {
       "name": "name",
       "type": "string",
       "value": "Garage 5 (zusammengelegt mit Garage 4 langfristig Druckwerkstatt)"
      }
     ]
    },
    {
     "id": 14,
     "name": "1-hof-garage-6",
     "type": "area",
     "x": 608,
     "y": 352,
     "width": 256,
     "height": 192,
     "rotation": 0,
     "visible": true,
     "properties": [
      {
       "name": "name",
       "type": "string",
       "value": "Garage 6 (Studio B (Medienwerksatt / Podcaststudio))"
      }
     ]
    },
    {
     "id": 16,
     "name": "1-hof-garage-7",
     "type": "area",
     "x": 896,
     "y": 352,
     "width": 256,
     "height": 192,
     "rotation": 0,
     "visible": true,
     "properties": [
      {
       "name": "name",
       "type": "string",
       "value": "Garage 7 (Musikproduktion / Proberaum /)"
      }
     ]
    },
    {
     "id": 18,
     "name": "1-hof-hofcafé-hofladen",
     "type": "area",
     "x": 32,
     "y": 576,
     "width": 256,
     "height": 192,
     "rotation": 0,
     "visible": true,
     "properties": [
      {
       "name": "name",
       "type": "string",
       "value": "HofCafé - Hofladen"
      }
     ]
    },
    {
     "id": 20,
     "name": "1-hof-holzwerkstatt",
     "type": "area",
     "x": 320,
     "y": 576,
     "width": 256,
     "height": 192,
     "rotation": 0,
     "visible": true,
     "properties": [
      {
       "name": "name",
       "type": "string",
       "value": "Holzwerkstatt"
      }
     ]
    },
    {
     "id": 22,
     "name": "1-hof-metalwerkstatt",
     "type": "area",
     "x": 608,
     "y": 576,
     "width": 256,
     "height": 192,
     "rotation": 0,
     "visible": true,
     "properties": [
      {
       "name": "name",
       "type": "string",
       "value": "Metalwerkstatt"
      }
     ]
    }
   ],
   "opacity": 1,
   "visible": true,
   "x": 0,
   "y": 0
  },
  {
   "id": 51,
   "name": "websites",
   "type": "objectgroup",
   "draworder": "topdown",
   "objects": [
    {
     "id": 1,
     "name": "site_1-hof-einfahrt",
     "type": "website",
     "x": 64,
     "y": 160,
     "width": 192,
     "height": 128,
     "rotation": 0,
     "visible": true,
     "properties": [
      {
       "name": "openWebsite",
       "type": "string",
       "value": "https://own.fe80.eu/apps/collectives/HausPlan/1.%20Hof/Einfahrt"
      },
      {
       "name": "openWebsiteTrigger",
       "type": "string",
       "value": "onaction"
      },
      {
       "name": "openWebsiteTriggerMessage",
       "type": "string",
       "value": "Drück SPACE um Einfahrt zu öffnen"
      }
     ]
    },
    {
     "id": 3,
     "name": "site_1-hof-garage-1",
     "type": "website",
     "x": 352,
     "y": 160,
     "width": 192,
     "height": 128,
     "rotation": 0,
     "visible": true,
     "properties": [
      {
       "name": "openWebsite",
       "type": "string",
       "value": "https://own.fe80.eu/apps/collectives/HausPlan/1.%20Hof/Garage%201/Garage%201"
      },
      {
       "name": "openWebsiteTrigger",
       "type": "string",
       "value": "onaction"
      },
      {
       "name": "openWebsiteTriggerMessage",
       "type": "string",
       "value": "Drück SPACE um Garage 1 zu öffnen"
      }
     ]
    },
    {
     "id": 5,
     "name": "site_1-hof-garage-2",
     "type": "website",
     "x": 640,
     "y": 160,
     "width": 192,
     "height": 128,
     "rotation": 0,
     "visible": true,
     "properties": [
      {
       "name": "openWebsite",
       "type": "string",
       "value": "https://own.fe80.eu/apps/collectives/HausPlan/1.%20Hof/Garage%202/Garage%202"
      },
      {
       "name": "openWebsiteTrigger",
       "type": "string",
       "value": "onaction"
      },
      {
       "name": "openWebsiteTriggerMessage",
       "type": "string",
       "value": "Drück SPACE um Garage 2 zu öffnen"
      }
     ]
    },
    {
     "id": 7,
     "name": "site_1-hof-garage-3",
     "type": "website",
     "x": 928,
     "y": 160,
     "width": 192,
     "height": 128,
     "rotation": 0,
     "visible": true,
     "properties": [
      {
       "name": "openWebsite",
       "type": "string",
       "value": "https://own.fe80.eu/apps/collectives/HausPlan/1.%20Hof/Garage%203/Garage%203"
      },
      {
       "name": "openWebsiteTrigger",
       "type": "string",
       "value": "onaction"
      },
      {
       "name": "openWebsiteTriggerMessage",
       "type": "string",
       "value": "Drück SPACE um Garage 3 zu öffnen"
      }
     ]
    },
    {
     "id": 9,
     "name": "site_1-hof-garage-4",
     "type": "website",
     "x": 64,
     "y": 384,
     "width": 192,
     "height": 128,
     "rotation": 0,
     "visible": true,
     "properties": [
      {
       "name": "openWebsite",
       "type": "string",
       "value": "https://own.fe80.eu/apps/collectives/HausPlan/1.%20Hof/Garage%204/Garage%204"
      },
      {
       "name": "openWebsiteTrigger",
       "type": "string",
       "value": "onaction"
      },
      {
       "name": "openWebsiteTriggerMessage",
       "type": "string",
       "value": "Drück SPACE um Garage 4 zu öffnen"
      }
     ]
    },
    {
     "id": 11,
     "name": "site_1-hof-garage-5",
     "type": "website",
     "x": 352,
     "y": 384,
     "width": 192,
     "height": 128,
     "rotation": 0,
     "visible": true,
     "properties": [
      {
       "name": "openWebsite",
       "type": "string",
       "value": "https://own.fe80.eu/apps/collectives/HausPlan/1.%20Hof/Garage%205/Garage%205"
      },
      {
       "name": "openWebsiteTrigger",
       "type": "string",
       "value": "onaction"
      },
      {
       "name": "openWebsiteTriggerMessage",
       "type": "string",
       "value": "Drück SPACE um Garage 5 zu öffnen"
      }
     ]
    },
    {
     "id": 13,
     "name": "site_1-hof-garage-6",
     "type": "website",
     "x": 640,
     "y": 384,
     "width": 192,
     "height": 128,
     "rotation": 0,
     "visible": true,
     "properties": [
      {
       "name": "openWebsite",
       "type": "string",
       "value": "https://own.fe80.eu/apps/collectives/HausPlan/1.%20Hof/Garage%206/Garage%206"
      },
      {
       "name": "openWebsiteTrigger",
       "type": "string",
       "value": "onaction"
      },
      {
       "name": "openWebsiteTriggerMessage",
       "type": "string",
       "value": "Drück SPACE um Garage 6 zu öffnen"
      }
     ]
    },
    {
     "id": 15,
     "name": "site_1-hof-garage-7",
     "type": "website",
     "x": 928,
     "y": 384,
     "width": 192,
     "height": 128,
     "rotation": 0,
     "visible": true,
     "properties": [
      {
       "name": "openWebsite",
       "type": "string",
       "value": "https://own.fe80.eu/apps/collectives/HausPlan/1.%20Hof/Garage%207/Garage%207"
      },
      {
       "name": "openWebsiteTrigger",
       "type": "string",
       "value": "onaction"
      },
      {
       "name": "openWebsiteTriggerMessage",
       "type": "string",
       "value": "Drück SPACE um Garage 7 zu öffnen"
      }
     ]
    },
    {
     "id": 17,
     "name": "site_1-hof-hofcafé-hofladen",
     "type": "website",
     "x": 64,
     "y": 608,
     "width": 192,
     "height": 128,
     "rotation": 0,
     "visible": true,
     "properties": [
      {
       "name": "openWebsite",
       "type": "string",
       "value": "https://own.fe80.eu/apps/collectives/HausPlan/1.%20Hof/HofCaf%C3%A9%20-%20Hofladen/HofCaf%C3%A9%20-%20Hofladen"
      },
      {
       "name": "openWebsiteTrigger",
       "type": "string",
       "value": "onaction"
      },
      {
       "name": "openWebsiteTriggerMessage",
       "type": "string",
       "value": "Drück SPACE um HofCafé - Hofladen zu öffnen"
      }
     ]
    },
    {
     "id": 19,
     "name": "site_1-hof-holzwerkstatt",
     "type": "website",
     "x": 352,
     "y": 608,
     "width": 192,
     "height": 128,
     "rotation": 0,
     "visible": true,
     "properties": [
      {
       "name": "openWebsite",
       "type": "string",
       "value": "https://own.fe80.eu/apps/collectives/HausPlan/1.%20Hof/Holzwerkstatt"
      },
      {
       "name": "openWebsiteTrigger",
       "type": "string",
       "value": "onaction"
      },
      {
       "name": "openWebsiteTriggerMessage",
       "type": "string",
       "value": "Drück SPACE um Holzwerkstatt zu öffnen"
      }
     ]
    },
    {
     "id": 21,
     "name": "site_1-hof-metalwerkstatt",
     "type": "website",
     "x": 640,
     "y": 608,
     "width": 192,
     "height": 128,
     "rotation": 0,
     "visible": true,
     "properties": [
      {
       "name": "openWebsite",
       "type": "string",
       "value": "https://own.fe80.eu/apps/collectives/HausPlan/1.%20Hof/Metalwerkstatt/Metalwerkstatt"
      },
      {
       "name": "openWebsiteTrigger",
       "type": "string",
       "value": "onaction"
      },
      {
       "name": "openWebsiteTriggerMessage",
       "type": "string",
       "value": "Drück SPACE um Metalwerkstatt zu öffnen"
      }
     ]
    }
   ],
   "opacity": 1,
   "visible": true,
   "x": 0,
   "y": 0
  },
  {
   "id": 52,
   "name": "exits",
   "type": "objectgroup",
   "draworder": "topdown",
   "objects": [
    {
     "id": 23,
     "name": "exit_to_2_stock",
     "type": "",
     "x": 32,
     "y": 32,
     "width": 64,
     "height": 64,
     "rotation": 0,
     "visible": true,
     "properties": [
      {
       "name": "exitUrl",
       "type": "string",
       "value": "2_stock.tmj#spawn"
      }
     ]
    },
    {
     "id": 24,
     "name": "exit_to_2_hof",
     "type": "",
     "x": 1216,
     "y": 32,
     "width": 64,
     "height": 64,
     "rotation": 0,
     "visible": true,
     "properties": [
      {
       "name": "exitUrl",
       "type": "string",
       "value": "2_hof.tmj#spawn"
      }
     ]
    }
   ],
   "opacity": 1,
   "visible": true,
   "x": 0,
   "y": 0
  }
 ]
}