{
 "compressionlevel": -1,
 "height": 20,
 "infinite": false,
 "width": 41,
 "tileheight": 32,
 "tilewidth": 32,
 "nextlayerid": 100,
 "nextobjectid": 9,
 "orientation": "orthogonal",
 "renderorder": "right-down",
 "tiledversion": "1.10.0",
 "type": "map",
 "version": "1.10",
 "properties": [
  {
   "name": "mapName",
   "type": "string",
   "value": "Karpischek — 2. Hof"
  },
  {
   "name": "mapDescription",
   "type": "string",
   "value": "3 Räume · Geschoss 5/5"
  },
  {
   "name": "mapCopyright",
   "type": "string",
   "value": "Laserscan TD Haider · WA Tileset Assets"
  }
 ],
 "tilesets": [
  {
   "firstgid": 1,
   "columns": 6,
   "image": "../../tilesets/WA_Special_Zones.png",
   "imageheight": 64,
   "imagewidth": 192,
   "margin": 0,
   "spacing": 0,
   "name": "zones",
   "tilecount": 12,
   "tileheight": 32,
   "tilewidth": 32
  },
  {
   "firstgid": 13,
   "columns": 12,
   "image": "../../tilesets/WA_Decoration.png",
   "imageheight": 256,
   "imagewidth": 384,
   "margin": 0,
   "spacing": 0,
   "name": "decoration",
   "tilecount": 96,
   "tileheight": 32,
   "tilewidth": 32
  },
  {
   "firstgid": 109,
   "columns": 25,
   "image": "../../tilesets/WA_Room_Builder.png",
   "imageheight": 1280,
   "imagewidth": 800,
   "margin": 0,
   "spacing": 0,
   "name": "room",
   "tilecount": 1000,
   "tileheight": 32,
   "tilewidth": 32
  },
  {
   "firstgid": 1109,
   "columns": 12,
   "image": "../../tilesets/WA_Other_Furniture.png",
   "imageheight": 416,
   "imagewidth": 384,
   "margin": 0,
   "spacing": 0,
   "name": "furniture",
   "tilecount": 156,
   "tileheight": 32,
   "tilewidth": 32
  },
  {
   "firstgid": 1265,
   "columns": 13,
   "image": "../../tilesets/WA_Seats.png",
   "imageheight": 448,
   "imagewidth": 416,
   "margin": 0,
   "spacing": 0,
   "name": "seats",
   "tilecount": 182,
   "tileheight": 32,
   "tilewidth": 32
  },
  {
   "firstgid": 1447,
   "columns": 10,
   "image": "../../tilesets/WA_Tables.png",
   "imageheight": 864,
   "imagewidth": 320,
   "margin": 0,
   "spacing": 0,
   "name": "tables",
   "tilecount": 270,
   "tileheight": 32,
   "tilewidth": 32
  },
  {
   "firstgid": 1717,
   "columns": 25,
   "image": "../../tilesets/WA_Exterior.png",
   "imageheight": 1088,
   "imagewidth": 800,
   "margin": 0,
   "spacing": 0,
   "name": "exterior",
   "tilecount": 850,
   "tileheight": 32,
   "tilewidth": 32
  },
  {
   "firstgid": 2567,
   "columns": 10,
   "image": "../../tilesets/WA_Miscellaneous.png",
   "imageheight": 352,
   "imagewidth": 320,
   "margin": 0,
   "spacing": 0,
   "name": "misc",
   "tilecount": 110,
   "tileheight": 32,
   "tilewidth": 32
  }
 ],
 "layers": [
  {
   "data": [
    0,
    0,
    0,
    0,
    0,
    0,
    0,
    0,
    0,
    0,
    0,
    0,
    0,
    0,
    0,
    0,
    0,
    0,
    0,
    0,
    0,
    0,
    0,
    0,
    0,
    0,
    0,
    0,
    0,
    0,
    0,
    0,
    0,
    0,
    0,
    0,
    0,
    0,
    0,
    0,
    0,
    0,
    0,
    0,
    0,
    0,
    0,
    0,
    0,
    0,
    0,
    0,
    0,
    0,
    0,
    0,
    0,
    0,
    0,
    0,
    0,
    1,
    0,
    0,
    0,
    0,
    0,
    0,
    0,
    0,
    0,
    0,
    0,
    0,
    0,
    0,
    0,
    0,
    0,
    0,
    0,
    0,
    0,
    0,
    0,
    0,
    0,
    0,
    0,
    0,
    0,
    0,
    0,
    0,
    0,
    0,
    0,
    0,
    0,
    0,
    0,
    0,
    0,
    0,
    0,
    0,
    0,
    0,
    0,
    0,
    0,
    0,
    0,
    0,
    0,
    0,
    0,
    0,
    0,
    0,
    0,
    0,
    0,
    0,
    0,
    0,
    0,
    0,
    0,
    0,
    0,
    0,
    0,
    0,
    0,
    0,
    0,
    0,
    0,
    0,
    0,
    0,
    0,
    0,
    0,
    0,
    0,
    0,
    0,
    0,
    0,
    0,
    0,
    0,
    0,
    0,
    0,
    0,
    0,
    0,
    0,
    0,
    0,
    0,
    0,
    0,
    0,
    0,
    0,
    0,
    0,
    0,
    0,
    0,
    0,
    0,
    0,
    0,
    0,
    0,
    0,
    0,
    0,
    0,
    0,
    0,
    0,
    0,
    0,
    0,
    0,
    0,
    0,
    0,
    0,
    0,
    0,
    0,
    0,
    0,
    0,
    0,
    0,
    0,
    0,
    0,
    0,
    0,
    0,
    0,
    0,
    0,
    0,
    0,
    0,
    0,
    0,
    0,
    0,
    0,
    0,
    0,
    0,
    0,
    0,
    0,
    0,
    0,
    0,
    0,
    0,
    0,
    0,
    0,
    0,
    0,
    0,
    0,
    0,
    0,
    0,
    0,
    0,
    0,
    0,
    0,
    0,
    0,
    0,
    0,
    0,
    0,
    0,
    0,
    0,
    0,
    0,
    0,
    0,
    0,
    0,
    0,
    0,
    0,
    0,
    0,
    0,
    0,
    0,
    0,
    0,
    0,
    0,
    0,
    0,
    0,
    0,
    0,
    0,
    0,
    0,
    0,
    0,
    0,
    0,
    0,
    0,
    0,
    0,
    0,
    0,
    0,
    0,
    0,
    0,
    0,
    0,
    0,
    0,
    0,
    0,
    0,
    0,
    0,
    0,
    0,
    0,
    0,
    0,
    0,
    0,
    0,
    0,
    0,
    0,
    0,
    0,
    0,
    0,
    0,
    0,
    0,
    0,
    0,
    0,
    0,
    0,
    0,
    0,
    0,
    0,
    0,
    0,
    0,
    0,
    0,
    0,
    0,
    0,
    0,
    0,
    0,
    0,
    0,
    0,
    0,
    0,
    0,
    0,
    0,
    0,
    0,
    0,
    0,
    0,
    0,
    0,
    0,
    0,
    0,
    0,
    0,
    0,
    0,
    0,
    0,
    0,
    0,
    0,
    0,
    0,
    0,
    0,
    0,
    0,
    0,
    0,
    0,
    0,
    0,
    0,
    0,
    0,
    0,
    0,
    0,
    0,
    0,
    0,
    0,
    0,
    0,
    0,
    0,
    0,
    0,
    0,
    0,
    0,
    0,
    0,
    0,
    0,
    0,
    0,
    0,
    0,
    0,
    0,
    0,
    0,
    0,
    0,
    0,
    0,
    0,
    0,
    0,
    0,
    0,
    0,
    0,
    0,
    0,
    0,
    0,
    0,
    0,
    0,
    0,
    0,
    0,
    0,
    0,
    0,
    0,
    0,
    0,
    0,
    0,
    0,
    0,
    0,
    0,
    0,
    0,
    0,
    0,
    0,
    0,
    0,
    0,
    0,
    0,
    0,
    0,
    0,
    0,
    0,
    0,
    0,
    0,
    0,
    0,
    0,
    0,
    0,
    0,
    0,
    0,
    0,
    0,
    0,
    0,
    0,
    0,
    0,
    0,
    0,
    0,
    0,
    0,
    0,
    0,
    0,
    0,
    0,
    0,
    0,
    0,
    0,
    0,
    0,
    0,
    0,
    0,
    0,
    0,
    0,
    0,
    0,
    0,
    0,
    0,
    0,
    0,
    0,
    0,
    0,
    0,
    0,
    0,
    0,
    0,
    0,
    0,
    0,
    0,
    0,
    0,
    0,
    0,
    0,
    0,
    0,
    0,
    0,
    0,
    0,
    0,
    0,
    0,
    0,
    0,
    0,
    0,
    0,
    0,
    0,
    0,
    0,
    0,
    0,
    0,
    0,
    0,
    0,
    0,
    0,
    0,
    0,
    0,
    0,
    0,
    0,
    0,
    0,
    0,
    0,
    0,
    0,
    0,
    0,
    0,
    0,
    0,
    0,
    0,
    0,
    0,
    0,
    0,
    0,
    0,
    0,
    0,
    0,
    0,
    0,
    0,
    0,
    0,
    0,
    0,
    0,
    0,
    0,
    0,
    0,
    0,
    0,
    0,
    0,
    0,
    0,
    0,
    0,
    0,
    0,
    0,
    0,
    0,
    0,
    0,
    0,
    0,
    0,
    0,
    0,
    0,
    0,
    0,
    0,
    0,
    0,
    0,
    0,
    0,
    0,
    0,
    0,
    0,
    0,
    0,
    0,
    0,
    0,
    0,
    0,
    0,
    0,
    0,
    0,
    0,
    0,
    0,
    0,
    0,
    0,
    0,
    0,
    0,
    0,
    0,
    0,
    0,
    0,
    0,
    0,
    0,
    0,
    0,
    0,
    0,
    0,
    0,
    0,
    0,
    0,
    0,
    0,
    0,
    0,
    0,
    0,
    0,
    0,
    0,
    0,
    0,
    0,
    0,
    0,
    0,
    0,
    0,
    0,
    0,
    0,
    0,
    0,
    0,
    0,
    0,
    0,
    0,
    0,
    0,
    0,
    0,
    0,
    0,
    0,
    0,
    0,
    0,
    0,
    0,
    0,
    0,
    0,
    0,
    0,
    0,
    0,
    0,
    0,
    0,
    0,
    0,
    0,
    0,
    0,
    0,
    0,
    0,
    0,
    0,
    0,
    0,
    0,
    0,
    0,
    0,
    0,
    0,
    0,
    0,
    0,
    0,
    0,
    0,
    0,
    0,
    0,
    0,
    0,
    0,
    0,
    0,
    0,
    0,
    0,
    0,
    0,
    0,
    0,
    0,
    0,
    0,
    0,
    0,
    0,
    0,
    0,
    0,
    0,
    0,
    0,
    0,
    0,
    0,
    0,
    0,
    0,
    0,
    0,
    0,
    0,
    0,
    0,
    0,
    0,
    0,
    0,
    0,
    0,
    0,
    0,
    0,
    0,
    0,
    0,
    0,
    0,
    0,
    0,
    0,
    0,
    0,
    0,
    0,
    0,
    0,
    0,
    0,
    0,
    0,
    0,
    0,
    0,
    0,
    0,
    0,
    0,
    0,
    0,
    0,
    0,
    0,
    0,
    0,
    0,
    0,
    0,
    0,
    0,
    0,
    0,
    0
   ],
   "height": 20,
   "id": 1,
   "width": 41,
   "name": "start",
   "opacity": 1,
   "type": "tilelayer",
   "visible": false,
   "x": 0,
   "y": 0
  },
  {
   "data": [
    1741,
    1741,
    1741,
    1741,
    1741,
    1741,
    1741,
    1741,
    1741,
    1741,
    1741,
    1741,
    1741,
    1741,
    1741,
    1741,
    1741,
    1741,
    1741,
    1741,
    1741,
    1741,
    1741,
    1741,
    1741,
    1741,
    1741,
    1741,
    1741,
    1741,
    1741,
    1741,
    1741,
    1741,
    1741,
    1741,
    1741,
    1741,
    1741,
    1741,
    1741,
    1741,
    1741,
    1741,
    1741,
    1741,
    1741,
    1741,
    1741,
    1741,
    1741,
    1741,
    1741,
    1741,
    1741,
    1741,
    1741,
    1741,
    1741,
    1741,
    1741,
    1741,
    1741,
    1741,
    1741,
    1741,
    1741,
    1741,
    1741,
    1741,
    1741,
    1741,
    1741,
    1741,
    1741,
    1741,
    1741,
    1741,
    1741,
    1741,
    1741,
    1741,
    1741,
    1741,
    1741,
    1741,
    1741,
    1741,
    1741,
    1741,
    1741,
    1741,
    1741,
    1741,
    1741,
    1741,
    1741,
    1741,
    1741,
    1741,
    1741,
    1741,
    1741,
    1741,
    1741,
    1741,
    1741,
    1741,
    1741,
    1741,
    1741,
    1741,
    1741,
    1741,
    1741,
    1741,
    1741,
    1741,
    1741,
    1741,
    1741,
    1741,
    1741,
    1741,
    1741,
    1741,
    1741,
    1741,
    1741,
    1741,
    1741,
    1741,
    1741,
    1741,
    1741,
    1741,
    1741,
    1741,
    1741,
    1741,
    1741,
    1741,
    1741,
    1741,
    1741,
    1741,
    1741,
    1741,
    1741,
    1741,
    1741,
    1741,
    1741,
    1741,
    1741,
    1741,
    1741,
    1741,
    1741,
    1741,
    1741,
    1741,
    1741,
    1741,
    1741,
    136,
    136,
    136,
    136,
    136,
    136,
    136,
    136,
    1741,
    139,
    139,
    139,
    139,
    139,
    139,
    139,
    139,
    1741,
    136,
    136,
    136,
    136,
    136,
    136,
    136,
    136,
    1741,
    1741,
    1741,
    1741,
    1741,
    1741,
    1741,
    1741,
    1741,
    1741,
    1741,
    1741,
    1741,
    1741,
    1741,
    136,
    136,
    136,
    136,
    136,
    136,
    136,
    136,
    1741,
    139,
    139,
    139,
    139,
    139,
    139,
    139,
    139,
    1741,
    136,
    136,
    136,
    136,
    136,
    136,
    136,
    136,
    1741,
    1741,
    1741,
    1741,
    1741,
    1741,
    1741,
    1741,
    1741,
    1741,
    1741,
    1741,
    1741,
    1741,
    1741,
    136,
    136,
    136,
    136,
    136,
    136,
    136,
    136,
    1741,
    139,
    139,
    139,
    139,
    139,
    139,
    139,
    139,
    1741,
    136,
    136,
    136,
    136,
    136,
    136,
    136,
    136,
    1741,
    1741,
    1741,
    1741,
    1741,
    1741,
    1741,
    1741,
    1741,
    1741,
    1741,
    1741,
    1741,
    1741,
    1741,
    136,
    136,
    136,
    136,
    136,
    136,
    136,
    136,
    1741,
    139,
    139,
    139,
    139,
    139,
    139,
    139,
    139,
    1741,
    136,
    136,
    136,
    136,
    136,
    136,
    136,
    136,
    1741,
    1741,
    1741,
    1741,
    1741,
    1741,
    1741,
    1741,
    1741,
    1741,
    1741,
    1741,
    1741,
    1741,
    1741,
    136,
    136,
    136,
    136,
    136,
    136,
    136,
    136,
    1741,
    139,
    139,
    139,
    139,
    139,
    139,
    139,
    139,
    1741,
    136,
    136,
    136,
    136,
    136,
    136,
    136,
    136,
    1741,
    1741,
    1741,
    1741,
    1741,
    1741,
    1741,
    1741,
    1741,
    1741,
    1741,
    1741,
    1741,
    1741,
    1741,
    136,
    136,
    136,
    136,
    186,
    136,
    136,
    136,
    1741,
    139,
    139,
    139,
    139,
    186,
    139,
    139,
    139,
    1741,
    136,
    136,
    136,
    136,
    186,
    136,
    136,
    136,
    1741,
    1741,
    1741,
    1741,
    1741,
    1741,
    1741,
    1741,
    1741,
    1741,
    1741,
    1741,
    1741,
    1741,
    1741,
    1741,
    1741,
    1741,
    1741,
    1741,
    1741,
    1741,
    1741,
    1741,
    1741,
    1741,
    1741,
    1741,
    1741,
    1741,
    1741,
    1741,
    1741,
    1741,
    1741,
    1741,
    1741,
    1741,
    1741,
    1741,
    1741,
    1741,
    1741,
    1741,
    1741,
    1741,
    1741,
    1741,
    1741,
    1741,
    1741,
    1741,
    1741,
    1741,
    1741,
    1741,
    1741,
    1741,
    1741,
    1741,
    1741,
    1741,
    1741,
    1741,
    1741,
    1741,
    1741,
    1741,
    1741,
    1741,
    1741,
    1741,
    1741,
    1741,
    1741,
    1741,
    1741,
    1741,
    1741,
    1741,
    1741,
    1741,
    1741,
    1741,
    1741,
    1741,
    1741,
    1741,
    1741,
    1741,
    1741,
    1741,
    1741,
    1741,
    1741,
    1741,
    1741,
    1741,
    1741,
    1741,
    1741,
    1741,
    1741,
    1741,
    1741,
    1741,
    1741,
    1741,
    1741,
    1741,
    1741,
    1741,
    1741,
    1741,
    1741,
    1741,
    1741,
    1741,
    1741,
    1741,
    1741,
    1741,
    1741,
    1741,
    1741,
    1741,
    1741,
    1741,
    1741,
    1741,
    1741,
    1741,
    1741,
    1741,
    1741,
    1741,
    1741,
    1741,
    1741,
    1741,
    1741,
    1741,
    1741,
    1741,
    1741,
    1741,
    1741,
    1741,
    1741,
    1741,
    1741,
    1741,
    1741,
    1741,
    1741,
    1741,
    1741,
    1741,
    1741,
    1741,
    1741,
    1741,
    1741,
    1741,
    1741,
    1741,
    1741,
    1741,
    1741,
    1741,
    1741,
    1741,
    1741,
    1741,
    1741,
    1741,
    1741,
    1741,
    1741,
    1741,
    1741,
    1741,
    1741,
    1741,
    1741,
    1741,
    1741,
    1741,
    1741,
    1741,
    1741,
    1741,
    1741,
    1741,
    1741,
    1741,
    1741,
    1741,
    1741,
    1741,
    1741,
    1741,
    1741,
    1741,
    1741,
    1741,
    1741,
    1741,
    1741,
    1741,
    1741,
    1741,
    1741,
    1741,
    1741,
    1741,
    1741,
    1741,
    1741,
    1741,
    1741,
    1741,
    1741,
    1741,
    1741,
    1741,
    1741,
    1741,
    1741,
    1741,
    1741,
    1741,
    1741,
    1741,
    1741,
    1741,
    1741,
    1741,
    1741,
    1741,
    1741,
    1741,
    1741,
    1741,
    1741,
    1741,
    1741,
    1741,
    1741,
    1741,
    1741,
    1741,
    1741,
    1741,
    1741,
    1741,
    1741,
    1741,
    1741,
    1741,
    1741,
    1741,
    1741,
    1741,
    1741,
    1741,
    1741,
    1741,
    1741,
    1741,
    1741,
    1741,
    1741,
    1741,
    1741,
    1741,
    1741,
    1741,
    1741,
    1741,
    1741,
    1741,
    1741,
    1741,
    1741,
    1741,
    1741,
    1741,
    1741,
    1741,
    1741,
    1741,
    1741,
    1741,
    1741,
    1741,
    1741,
    1741,
    1741,
    1741,
    1741,
    1741,
    1741,
    1741,
    1741,
    1741,
    1741,
    1741,
    1741,
    1741,
    1741,
    1741,
    1741,
    1741,
    1741,
    1741,
    1741,
    1741,
    1741,
    1741,
    1741,
    1741,
    1741,
    1741,
    1741,
    1741,
    1741,
    1741,
    1741,
    1741,
    1741,
    1741,
    1741,
    1741,
    1741,
    1741,
    1741,
    1741,
    1741,
    1741,
    1741,
    1741,
    1741,
    1741,
    1741,
    1741,
    1741,
    1741,
    1741,
    1741,
    1741,
    1741,
    1741,
    1741,
    1741,
    1741,
    1741,
    1741,
    1741,
    1741,
    1741,
    1741,
    1741,
    1741,
    1741,
    1741,
    1741,
    1741,
    1741,
    1741,
    1741,
    1741,
    1741,
    1741,
    1741,
    1741,
    1741,
    1741,
    1741,
    1741,
    1741,
    1741,
    1741,
    1741,
    1741,
    1741,
    1741,
    1741,
    1741,
    1741,
    1741,
    1741,
    1741,
    1741,
    1741,
    1741,
    1741,
    1741,
    1741,
    1741,
    1741,
    1741,
    1741,
    1741,
    1741,
    1741,
    1741,
    1741,
    1741,
    1741,
    1741,
    1741,
    1741,
    1741,
    1741,
    1741,
    1741,
    1741,
    1741,
    1741,
    1741,
    1741,
    1741,
    1741
   ],
   "height": 20,
   "id": 2,
   "width": 41,
   "name": "ground",
   "opacity": 1,
   "type": "tilelayer",
   "visible": true,
   "x": 0,
   "y": 0
  },
  {
   "data": [
    0,
    0,
    0,
    0,
    0,
    0,
    0,
    0,
    0,
    0,
    0,
    0,
    0,
    0,
    0,
    0,
    0,
    0,
    0,
    0,
    0,
    0,
    0,
    0,
    0,
    0,
    0,
    0,
    0,
    0,
    0,
    0,
    0,
    0,
    0,
    0,
    0,
    0,
    0,
    0,
    0,
    0,
    0,
    0,
    0,
    0,
    0,
    0,
    0,
    0,
    0,
    0,
    0,
    0,
    0,
    0,
    0,
    0,
    0,
    0,
    0,
    0,
    0,
    0,
    0,
    0,
    0,
    0,
    0,
    0,
    0,
    0,
    0,
    0,
    0,
    0,
    0,
    0,
    0,
    0,
    0,
    0,
    0,
    0,
    0,
    0,
    0,
    0,
    0,
    0,
    0,
    0,
    0,
    0,
    0,
    0,
    0,
    0,
    0,
    0,
    0,
    0,
    0,
    0,
    0,
    0,
    0,
    0,
    0,
    0,
    0,
    0,
    0,
    0,
    0,
    0,
    0,
    0,
    0,
    0,
    0,
    0,
    0,
    0,
    0,
    0,
    0,
    0,
    0,
    0,
    0,
    0,
    0,
    0,
    0,
    0,
    0,
    0,
    0,
    0,
    0,
    0,
    0,
    0,
    0,
    0,
    0,
    0,
    0,
    0,
    0,
    0,
    0,
    0,
    0,
    0,
    0,
    0,
    0,
    0,
    0,
    0,
    0,
    0,
    0,
    110,
    111,
    111,
    111,
    111,
    111,
    111,
    112,
    0,
    110,
    111,
    111,
    111,
    111,
    111,
    111,
    112,
    0,
    110,
    111,
    111,
    111,
    111,
    111,
    111,
    112,
    0,
    0,
    0,
    0,
    0,
    0,
    0,
    0,
    0,
    0,
    0,
    0,
    0,
    0,
    0,
    134,
    0,
    0,
    0,
    0,
    0,
    0,
    135,
    0,
    134,
    0,
    0,
    0,
    0,
    0,
    0,
    135,
    0,
    134,
    0,
    0,
    0,
    0,
    0,
    0,
    135,
    0,
    0,
    0,
    0,
    0,
    0,
    0,
    0,
    0,
    0,
    0,
    0,
    0,
    0,
    0,
    134,
    0,
    0,
    0,
    0,
    0,
    0,
    135,
    0,
    134,
    0,
    0,
    0,
    0,
    0,
    0,
    135,
    0,
    134,
    0,
    0,
    0,
    0,
    0,
    0,
    135,
    0,
    0,
    0,
    0,
    0,
    0,
    0,
    0,
    0,
    0,
    0,
    0,
    0,
    0,
    0,
    134,
    0,
    0,
    0,
    0,
    0,
    0,
    135,
    0,
    134,
    0,
    0,
    0,
    0,
    0,
    0,
    135,
    0,
    134,
    0,
    0,
    0,
    0,
    0,
    0,
    135,
    0,
    0,
    0,
    0,
    0,
    0,
    0,
    0,
    0,
    0,
    0,
    0,
    0,
    0,
    0,
    134,
    0,
    0,
    0,
    0,
    0,
    0,
    135,
    0,
    134,
    0,
    0,
    0,
    0,
    0,
    0,
    135,
    0,
    134,
    0,
    0,
    0,
    0,
    0,
    0,
    135,
    0,
    0,
    0,
    0,
    0,
    0,
    0,
    0,
    0,
    0,
    0,
    0,
    0,
    0,
    0,
    160,
    161,
    161,
    0,
    0,
    161,
    161,
    162,
    0,
    160,
    161,
    161,
    0,
    0,
    161,
    161,
    162,
    0,
    160,
    161,
    161,
    0,
    0,
    161,
    161,
    162,
    0,
    0,
    0,
    0,
    0,
    0,
    0,
    0,
    0,
    0,
    0,
    0,
    0,
    0,
    0,
    0,
    0,
    0,
    0,
    0,
    0,
    0,
    0,
    0,
    0,
    0,
    0,
    0,
    0,
    0,
    0,
    0,
    0,
    0,
    0,
    0,
    0,
    0,
    0,
    0,
    0,
    0,
    0,
    0,
    0,
    0,
    0,
    0,
    0,
    0,
    0,
    0,
    0,
    0,
    0,
    0,
    0,
    0,
    0,
    0,
    0,
    0,
    0,
    0,
    0,
    0,
    0,
    0,
    0,
    0,
    0,
    0,
    0,
    0,
    0,
    0,
    0,
    0,
    0,
    0,
    0,
    0,
    0,
    0,
    0,
    0,
    0,
    0,
    0,
    0,
    0,
    0,
    0,
    0,
    0,
    0,
    0,
    0,
    0,
    0,
    0,
    0,
    0,
    0,
    0,
    0,
    0,
    0,
    0,
    0,
    0,
    0,
    0,
    0,
    0,
    0,
    0,
    0,
    0,
    0,
    0,
    0,
    0,
    0,
    0,
    0,
    0,
    0,
    0,
    0,
    0,
    0,
    0,
    0,
    0,
    0,
    0,
    0,
    0,
    0,
    0,
    0,
    0,
    0,
    0,
    0,
    0,
    0,
    0,
    0,
    0,
    0,
    0,
    0,
    0,
    0,
    0,
    0,
    0,
    0,
    0,
    0,
    0,
    0,
    0,
    0,
    0,
    0,
    0,
    0,
    0,
    0,
    0,
    0,
    0,
    0,
    0,
    0,
    0,
    0,
    0,
    0,
    0,
    0,
    0,
    0,
    0,
    0,
    0,
    0,
    0,
    0,
    0,
    0,
    0,
    0,
    0,
    0,
    0,
    0,
    0,
    0,
    0,
    0,
    0,
    0,
    0,
    0,
    0,
    0,
    0,
    0,
    0,
    0,
    0,
    0,
    0,
    0,
    0,
    0,
    0,
    0,
    0,
    0,
    0,
    0,
    0,
    0,
    0,
    0,
    0,
    0,
    0,
    0,
    0,
    0,
    0,
    0,
    0,
    0,
    0,
    0,
    0,
    0,
    0,
    0,
    0,
    0,
    0,
    0,
    0,
    0,
    0,
    0,
    0,
    0,
    0,
    0,
    0,
    0,
    0,
    0,
    0,
    0,
    0,
    0,
    0,
    0,
    0,
    0,
    0,
    0,
    0,
    0,
    0,
    0,
    0,
    0,
    0,
    0,
    0,
    0,
    0,
    0,
    0,
    0,
    0,
    0,
    0,
    0,
    0,
    0,
    0,
    0,
    0,
    0,
    0,
    0,
    0,
    0,
    0,
    0,
    0,
    0,
    0,
    0,
    0,
    0,
    0,
    0,
    0,
    0,
    0,
    0,
    0,
    0,
    0,
    0,
    0,
    0,
    0,
    0,
    0,
    0,
    0,
    0,
    0,
    0,
    0,
    0,
    0,
    0,
    0,
    0,
    0,
    0,
    0,
    0,
    0,
    0,
    0,
    0,
    0,
    0,
    0,
    0,
    0,
    0,
    0,
    0,
    0,
    0,
    0,
    0,
    0,
    0,
    0,
    0,
    0,
    0,
    0,
    0,
    0,
    0,
    0,
    0,
    0,
    0,
    0,
    0,
    0,
    0,
    0,
    0,
    0,
    0,
    0,
    0,
    0,
    0,
    0,
    0,
    0,
    0,
    0,
    0,
    0,
    0,
    0,
    0,
    0,
    0,
    0,
    0,
    0,
    0,
    0,
    0,
    0,
    0,
    0,
    0,
    0,
    0,
    0,
    0,
    0,
    0,
    0,
    0,
    0,
    0,
    0,
    0,
    0,
    0,
    0,
    0,
    0,
    0,
    0,
    0,
    0,
    0
   ],
   "height": 20,
   "id": 3,
   "width": 41,
   "name": "walls",
   "opacity": 1,
   "type": "tilelayer",
   "visible": true,
   "x": 0,
   "y": 0
  },
  {
   "data": [
    0,
    0,
    0,
    0,
    0,
    0,
    0,
    0,
    0,
    0,
    0,
    0,
    0,
    0,
    0,
    0,
    0,
    0,
    0,
    0,
    0,
    0,
    0,
    0,
    0,
    0,
    0,
    0,
    0,
    0,
    0,
    0,
    0,
    0,
    0,
    0,
    0,
    0,
    0,
    0,
    0,
    0,
    0,
    0,
    0,
    0,
    0,
    0,
    0,
    0,
    0,
    0,
    0,
    0,
    0,
    0,
    0,
    0,
    0,
    0,
    0,
    0,
    0,
    0,
    0,
    0,
    0,
    0,
    0,
    0,
    0,
    0,
    0,
    0,
    0,
    0,
    0,
    0,
    0,
    0,
    0,
    0,
    0,
    0,
    0,
    0,
    0,
    0,
    0,
    0,
    0,
    0,
    0,
    0,
    0,
    0,
    0,
    0,
    0,
    0,
    0,
    0,
    0,
    0,
    0,
    0,
    0,
    0,
    0,
    0,
    0,
    0,
    0,
    0,
    0,
    0,
    0,
    0,
    0,
    0,
    0,
    0,
    0,
    0,
    0,
    0,
    0,
    0,
    0,
    0,
    0,
    0,
    0,
    0,
    0,
    0,
    0,
    0,
    0,
    0,
    0,
    0,
    0,
    0,
    0,
    0,
    0,
    0,
    0,
    0,
    0,
    0,
    0,
    0,
    0,
    0,
    0,
    0,
    0,
    0,
    0,
    0,
    0,
    0,
    0,
    3,
    3,
    3,
    3,
    3,
    3,
    3,
    3,
    0,
    3,
    3,
    3,
    3,
    3,
    3,
    3,
    3,
    0,
    3,
    3,
    3,
    3,
    3,
    3,
    3,
    3,
    0,
    0,
    0,
    0,
    0,
    0,
    0,
    0,
    0,
    0,
    0,
    0,
    0,
    0,
    0,
    3,
    0,
    0,
    0,
    0,
    0,
    0,
    3,
    0,
    3,
    0,
    0,
    0,
    0,
    0,
    0,
    3,
    0,
    3,
    0,
    0,
    0,
    0,
    0,
    0,
    3,
    0,
    0,
    0,
    0,
    0,
    0,
    0,
    0,
    0,
    0,
    0,
    0,
    0,
    0,
    0,
    3,
    0,
    0,
    0,
    0,
    0,
    0,
    3,
    0,
    3,
    0,
    0,
    0,
    0,
    0,
    0,
    3,
    0,
    3,
    0,
    0,
    0,
    0,
    0,
    0,
    3,
    0,
    0,
    0,
    0,
    0,
    0,
    0,
    0,
    0,
    0,
    0,
    0,
    0,
    0,
    0,
    3,
    0,
    0,
    0,
    0,
    0,
    0,
    3,
    0,
    3,
    0,
    0,
    0,
    0,
    0,
    0,
    3,
    0,
    3,
    0,
    0,
    0,
    0,
    0,
    0,
    3,
    0,
    0,
    0,
    0,
    0,
    0,
    0,
    0,
    0,
    0,
    0,
    0,
    0,
    0,
    0,
    3,
    0,
    0,
    0,
    0,
    0,
    0,
    3,
    0,
    3,
    0,
    0,
    0,
    0,
    0,
    0,
    3,
    0,
    3,
    0,
    0,
    0,
    0,
    0,
    0,
    3,
    0,
    0,
    0,
    0,
    0,
    0,
    0,
    0,
    0,
    0,
    0,
    0,
    0,
    0,
    0,
    3,
    3,
    3,
    0,
    0,
    3,
    3,
    3,
    0,
    3,
    3,
    3,
    0,
    0,
    3,
    3,
    3,
    0,
    3,
    3,
    3,
    0,
    0,
    3,
    3,
    3,
    0,
    0,
    0,
    0,
    0,
    0,
    0,
    0,
    0,
    0,
    0,
    0,
    0,
    0,
    0,
    0,
    0,
    0,
    0,
    0,
    0,
    0,
    0,
    0,
    0,
    0,
    0,
    0,
    0,
    0,
    0,
    0,
    0,
    0,
    0,
    0,
    0,
    0,
    0,
    0,
    0,
    0,
    0,
    0,
    0,
    0,
    0,
    0,
    0,
    0,
    0,
    0,
    0,
    0,
    0,
    0,
    0,
    0,
    0,
    0,
    0,
    0,
    0,
    0,
    0,
    0,
    0,
    0,
    0,
    0,
    0,
    0,
    0,
    0,
    0,
    0,
    0,
    0,
    0,
    0,
    0,
    0,
    0,
    0,
    0,
    0,
    0,
    0,
    0,
    0,
    0,
    0,
    0,
    0,
    0,
    0,
    0,
    0,
    0,
    0,
    0,
    0,
    0,
    0,
    0,
    0,
    0,
    0,
    0,
    0,
    0,
    0,
    0,
    0,
    0,
    0,
    0,
    0,
    0,
    0,
    0,
    0,
    0,
    0,
    0,
    0,
    0,
    0,
    0,
    0,
    0,
    0,
    0,
    0,
    0,
    0,
    0,
    0,
    0,
    0,
    0,
    0,
    0,
    0,
    0,
    0,
    0,
    0,
    0,
    0,
    0,
    0,
    0,
    0,
    0,
    0,
    0,
    0,
    0,
    0,
    0,
    0,
    0,
    0,
    0,
    0,
    0,
    0,
    0,
    0,
    0,
    0,
    0,
    0,
    0,
    0,
    0,
    0,
    0,
    0,
    0,
    0,
    0,
    0,
    0,
    0,
    0,
    0,
    0,
    0,
    0,
    0,
    0,
    0,
    0,
    0,
    0,
    0,
    0,
    0,
    0,
    0,
    0,
    0,
    0,
    0,
    0,
    0,
    0,
    0,
    0,
    0,
    0,
    0,
    0,
    0,
    0,
    0,
    0,
    0,
    0,
    0,
    0,
    0,
    0,
    0,
    0,
    0,
    0,
    0,
    0,
    0,
    0,
    0,
    0,
    0,
    0,
    0,
    0,
    0,
    0,
    0,
    0,
    0,
    0,
    0,
    0,
    0,
    0,
    0,
    0,
    0,
    0,
    0,
    0,
    0,
    0,
    0,
    0,
    0,
    0,
    0,
    0,
    0,
    0,
    0,
    0,
    0,
    0,
    0,
    0,
    0,
    0,
    0,
    0,
    0,
    0,
    0,
    0,
    0,
    0,
    0,
    0,
    0,
    0,
    0,
    0,
    0,
    0,
    0,
    0,
    0,
    0,
    0,
    0,
    0,
    0,
    0,
    0,
    0,
    0,
    0,
    0,
    0,
    0,
    0,
    0,
    0,
    0,
    0,
    0,
    0,
    0,
    0,
    0,
    0,
    0,
    0,
    0,
    0,
    0,
    0,
    0,
    0,
    0,
    0,
    0,
    0,
    0,
    0,
    0,
    0,
    0,
    0,
    0,
    0,
    0,
    0,
    0,
    0,
    0,
    0,
    0,
    0,
    0,
    0,
    0,
    0,
    0,
    0,
    0,
    0,
    0,
    0,
    0,
    0,
    0,
    0,
    0,
    0,
    0,
    0,
    0,
    0,
    0,
    0,
    0,
    0,
    0,
    0,
    0,
    0,
    0,
    0,
    0,
    0,
    0,
    0,
    0,
    0,
    0,
    0,
    0,
    0,
    0,
    0,
    0,
    0,
    0,
    0,
    0,
    0,
    0,
    0,
    0,
    0,
    0,
    0,
    0,
    0,
    0,
    0,
    0,
    0,
    0,
    0,
    0,
    0,
    0,
    0,
    0,
    0,
    0,
    0,
    0,
    0,
    0,
    0,
    0,
    0,
    0,
    0,
    0,
    0
   ],
   "height": 20,
   "id": 4,
   "width": 41,
   "name": "collisions",
   "opacity": 1,
   "type": "tilelayer",
   "visible": false,
   "x": 0,
   "y": 0
  },
  {
   "id": 50,
   "name": "floorLayer",
   "type": "objectgroup",
   "draworder": "topdown",
   "objects": [
    {
     "id": 2,
     "name": "2-hof-barn",
     "type": "area",
     "x": 32,
     "y": 128,
     "width": 256,
     "height": 192,
     "rotation": 0,
     "visible": true,
     "properties": [
      {
       "name": "name",
       "type": "string",
       "value": "Barn"
      }
     ]
    },
    {
     "id": 4,
     "name": "2-hof-man-cave-techniklager",
     "type": "area",
     "x": 320,
     "y": 128,
     "width": 256,
     "height": 192,
     "rotation": 0,
     "visible": true,
     "properties": [
      {
       "name": "name",
       "type": "string",
       "value": "Man-Cave - Techniklager"
      }
     ]
    },
    {
     "id": 6,
     "name": "2-hof-scheunentrackt-links",
     "type": "area",
     "x": 608,
     "y": 128,
     "width": 256,
     "height": 192,
     "rotation": 0,
     "visible": true,
     "properties": [
      {
       "name": "name",
       "type": "string",
       "value": "Scheunentrackt links"
      }
     ]
    }
   ],
   "opacity": 1,
   "visible": true,
   "x": 0,
   "y": 0
  },
  {
   "id": 51,
   "name": "websites",
   "type": "objectgroup",
   "draworder": "topdown",
   "objects": [
    {
     "id": 1,
     "name": "site_2-hof-barn",
     "type": "website",
     "x": 64,
     "y": 160,
     "width": 192,
     "height": 128,
     "rotation": 0,
     "visible": true,
     "properties": [
      {
       "name": "openWebsite",
       "type": "string",
       "value": "https://own.fe80.eu/apps/collectives/HausPlan/2.%20Hof/Barn"
      },
      {
       "name": "openWebsiteTrigger",
       "type": "string",
       "value": "onaction"
      },
      {
       "name": "openWebsiteTriggerMessage",
       "type": "string",
       "value": "Drück SPACE um Barn zu öffnen"
      }
     ]
    },
    {
     "id": 3,
     "name": "site_2-hof-man-cave-techniklager",
     "type": "website",
     "x": 352,
     "y": 160,
     "width": 192,
     "height": 128,
     "rotation": 0,
     "visible": true,
     "properties": [
      {
       "name": "openWebsite",
       "type": "string",
       "value": "https://own.fe80.eu/apps/collectives/HausPlan/2.%20Hof/Man-Cave%20-%20Techniklager/Man-Cave%20-%20Techniklager"
      },
      {
       "name": "openWebsiteTrigger",
       "type": "string",
       "value": "onaction"
      },
      {
       "name": "openWebsiteTriggerMessage",
       "type": "string",
       "value": "Drück SPACE um Man-Cave - Techniklager zu öffnen"
      }
     ]
    },
    {
     "id": 5,
     "name": "site_2-hof-scheunentrackt-links",
     "type": "website",
     "x": 640,
     "y": 160,
     "width": 192,
     "height": 128,
     "rotation": 0,
     "visible": true,
     "properties": [
      {
       "name": "openWebsite",
       "type": "string",
       "value": "https://own.fe80.eu/apps/collectives/HausPlan/2.%20Hof/Scheunentrackt%20links"
      },
      {
       "name": "openWebsiteTrigger",
       "type": "string",
       "value": "onaction"
      },
      {
       "name": "openWebsiteTriggerMessage",
       "type": "string",
       "value": "Drück SPACE um Scheunentrackt links zu öffnen"
      }
     ]
    }
   ],
   "opacity": 1,
   "visible": true,
   "x": 0,
   "y": 0
  },
  {
   "id": 52,
   "name": "exits",
   "type": "objectgroup",
   "draworder": "topdown",
   "objects": [
    {
     "id": 7,
     "name": "exit_to_1_hof",
     "type": "",
     "x": 32,
     "y": 32,
     "width": 64,
     "height": 64,
     "rotation": 0,
     "visible": true,
     "properties": [
      {
       "name": "exitUrl",
       "type": "string",
       "value": "1_hof.tmj#spawn"
      }
     ]
    }
   ],
   "opacity": 1,
   "visible": true,
   "x": 0,
   "y": 0
  }
 ]
}